;FilamentType:PLA
;MachineType:ENTINA TINA2
;Extruder0Temperature:200
;BedTemperature:40
;InfillDensity:10
;FLAVOR:Marlin
;TIME:8427
;FilamentUsed: 6010.15
;Layer height: 0.15
;MINX:21.2
;MINY:8.2
;MINZ:0.3
;MAXX:78.8
;MAXY:111.8
;MAXZ:10.05
;Generated with Cura_SteamEngine 4.10.0
M82 ;absolute extrusion mode
;(**** start.gcode for TINA2****)
M104 S150
G28 Z
G28 X Y; Home extruder
G1 X55 Y55 F1000
G1 Z10 F200
G29
G1 Z15 F100
M107 ; Turn off fan
G90 ; Absolute positioning
M82 ; Extruder in absolute mode
M109 S215
G92 E0 ; Reset extruder position
G1 X90 Y6 Z0.27 F2000
G1 X20 Y6 Z0.27 E15 F1000 
G92 E0 ; Reset extruder position

M203 Z5
G92 E0
G92 E0
G1 F2100 E-3
;LAYER_COUNT:66
;LAYER:0
M107
;MESH:X68KFDuino-Bottom_Print.stl
G0 F3600 X24.462 Y13.035 Z0.3
;TYPE:WALL-INNER
G1 F2100 E0
G1 F1320 X25.001 Y13.106 E0.02577
G1 X25.552 Y13.031 E0.05212
G1 X26.057 Y12.82 E0.07806
G1 X26.489 Y12.489 E0.10386
G1 X26.824 Y12.052 E0.12995
G1 X27.034 Y11.544 E0.15601
G1 X27.105 Y11 E0.18201
G1 X27.034 Y10.456 E0.20801
G1 X26.823 Y9.947 E0.23413
G1 X26.484 Y9.507 E0.26045
G1 X26.051 Y9.176 E0.28628
G1 X25.619 Y8.998 E0.30843
G1 X25.538 Y8.965 E0.31257
G1 X25 Y8.895 E0.33829
G1 X24.456 Y8.966 E0.36429
G1 X24.378 Y8.998 E0.36829
G1 X23.947 Y9.177 E0.39041
G1 X23.507 Y9.516 E0.41673
G1 X23.176 Y9.949 E0.44256
G1 X22.965 Y10.462 E0.46885
G1 X22.895 Y11 E0.49457
G1 X22.966 Y11.544 E0.52057
G1 X23.177 Y12.053 E0.54668
G1 X23.516 Y12.493 E0.57301
G1 X23.949 Y12.824 E0.59884
G1 X24.462 Y13.035 E0.62513
G0 F3600 X24.437 Y13.131
G0 X21.855 Y109
G0 X21.928 Y109.556
G0 X22.147 Y110.078
G0 X22.488 Y110.521
G0 X23.437 Y111.131
G0 X23.462 Y111.035
G1 F1320 X24 Y111.105 E0.65085
G1 X24.546 Y111.034 E0.67694
G1 X24.623 Y111.002 E0.68089
G1 X25.057 Y110.82 E0.7032
G1 X25.49 Y110.488 E0.72906
G1 X25.826 Y110.046 E0.75537
G1 X26.034 Y109.545 E0.78108
G1 X26.106 Y108.999 E0.80719
G1 X26.031 Y108.449 E0.8335
G1 X25.823 Y107.947 E0.85925
G1 X25.488 Y107.51 E0.88535
G1 X25.046 Y107.174 E0.91166
G1 X24.544 Y106.966 E0.93742
G1 X23.992 Y106.896 E0.96379
G1 X23.448 Y106.969 E0.9898
G1 X22.942 Y107.181 E1.0158
G1 X22.508 Y107.516 E1.04179
G1 X22.177 Y107.947 E1.06755
G1 X21.998 Y108.378 E1.08966
G1 X21.966 Y108.456 E1.09366
G1 X21.895 Y109 E1.11966
G1 X21.966 Y109.546 E1.14576
G1 X21.998 Y109.623 E1.14971
G1 X22.181 Y110.058 E1.17208
G1 X22.516 Y110.493 E1.1981
G1 X22.949 Y110.824 E1.22393
G1 X23.381 Y111.002 E1.24608
G1 X23.462 Y111.035 E1.25022
G0 F3600 X23.374 Y111.4
G1 F1320 X21.6 Y111.4 E1.3343
G1 X21.6 Y109.63 E1.41819
G1 X21.6 Y109.546 E1.42201
G1 X21.6 Y109 E1.44338
G1 X21.6 Y108.456 E1.46468
G1 X21.6 Y108.371 E1.46854
G1 X21.6 Y8.6 E6.19725
G1 X24.371 Y8.6 E6.32859
G1 X24.456 Y8.6 E6.33245
G1 X25 Y8.6 E6.35374
G1 X25.538 Y8.6 E6.37477
G1 X25.626 Y8.6 E6.37877
G1 X78.4 Y8.6 E8.88003
G1 X78.4 Y111.4 E13.7523
G1 X24.63 Y111.4 E16.30077
G1 X24.546 Y111.4 E16.30459
G1 X24 Y111.4 E16.32596
G1 X23.462 Y111.4 E16.34699
G1 X23.374 Y111.4 E16.35098
G0 F3600 X23.566 Y110.645
;TYPE:WALL-OUTER
G1 F1320 X24 Y110.702 E16.37173
G1 X24.441 Y110.644 E16.39281
G1 X24.855 Y110.471 E16.41407
G1 X25.204 Y110.203 E16.43493
G1 X25.476 Y109.845 E16.45624
G1 X25.644 Y109.44 E16.47702
G1 X25.702 Y109 E16.49805
G1 X25.642 Y108.554 E16.51938
G1 X25.474 Y108.149 E16.54016
G1 X25.203 Y107.796 E16.56126
G1 X24.845 Y107.524 E16.58257
G1 X24.44 Y107.356 E16.60335
G1 X23.993 Y107.299 E16.6247
G1 X23.554 Y107.358 E16.6457
G1 X23.145 Y107.53 E16.66673
G1 X22.793 Y107.801 E16.68778
G1 X22.526 Y108.149 E16.70857
G1 X22.356 Y108.56 E16.72965
G1 X22.298 Y109 E16.75069
G1 X22.356 Y109.441 E16.77177
G1 X22.53 Y109.855 E16.79305
G1 X22.801 Y110.207 E16.81411
G1 X23.15 Y110.474 E16.83493
G1 X23.566 Y110.645 E16.85625
G0 F3600 X23.764 Y110.671
G0 X23.7 Y111.166
G0 X78.33 Y111.33
G0 X78.8 Y111.8
G1 F1320 X21.2 Y111.8 E19.58624
G1 X21.2 Y8.2 E24.49644
G1 X78.8 Y8.2 E27.22643
G1 X78.8 Y111.8 E32.13662
G0 F3600 X78.6 Y111.8
G0 X78.33 Y111.33
G0 X24.5 Y13.14
G0 X24.566 Y12.645
G1 F1320 X25 Y12.702 E32.15737
G1 X25.446 Y12.642 E32.1787
G1 X25.855 Y12.471 E32.19971
G1 X26.204 Y12.204 E32.22054
G1 X26.474 Y11.851 E32.2416
G1 X26.644 Y11.44 E32.26268
G1 X26.702 Y11 E32.28371
G1 X26.644 Y10.56 E32.30475
G1 X26.474 Y10.149 E32.32583
G1 X26.199 Y9.793 E32.34715
G1 X25.85 Y9.526 E32.36798
G1 X25.434 Y9.355 E32.38929
G1 X25 Y9.298 E32.41004
G1 X24.56 Y9.356 E32.43107
G1 X24.149 Y9.526 E32.45215
G1 X23.793 Y9.801 E32.47347
G1 X23.526 Y10.15 E32.4943
G1 X23.355 Y10.566 E32.51562
G1 X23.298 Y11 E32.53637
G1 X23.356 Y11.44 E32.5574
G1 X23.526 Y11.851 E32.57848
G1 X23.801 Y12.207 E32.5998
G1 X24.15 Y12.474 E32.62063
G1 X24.566 Y12.645 E32.64194
G0 F3600 X24.764 Y12.671
G0 X24.361 Y13.415
;TYPE:SKIN
G1 F1320 X25.001 Y13.5 E32.67254
G1 X25.655 Y13.411 E32.70383
G1 X26.254 Y13.161 E32.73459
G1 X26.768 Y12.768 E32.76526
G1 X27.165 Y12.249 E32.79623
G1 X27.414 Y11.645 E32.82719
G1 X27.499 Y11 E32.85802
G1 X27.414 Y10.354 E32.88891
G1 X27.164 Y9.75 E32.91989
G1 X26.761 Y9.228 E32.95114
G1 X26.449 Y8.99 E32.96974
G1 X78.01 Y8.99 E35.41351
G1 X78.01 Y111.01 E40.24882
G1 X25.45 Y111.01 E42.73994
G1 X25.769 Y110.765 E42.759
G1 X26.167 Y110.243 E42.79011
G1 X26.414 Y109.647 E42.82069
G1 X26.5 Y108.999 E42.85167
G1 X26.411 Y108.346 E42.88291
G1 X26.164 Y107.75 E42.91349
G1 X25.765 Y107.231 E42.94451
G1 X25.241 Y106.833 E42.9757
G1 X24.645 Y106.586 E43.00628
G1 X23.99 Y106.502 E43.03758
G1 X23.345 Y106.589 E43.06842
G1 X22.745 Y106.841 E43.09927
G1 X22.229 Y107.239 E43.13015
G1 X21.99 Y107.55 E43.14874
G1 X21.99 Y8.99 E47.82006
G1 X23.551 Y8.99 E47.89405
G1 X23.228 Y9.239 E47.91338
G1 X22.835 Y9.754 E47.94408
G1 X22.585 Y10.361 E47.97519
G1 X22.501 Y11 E48.00574
G1 X22.586 Y11.646 E48.03662
G1 X22.836 Y12.25 E48.0676
G1 X23.239 Y12.772 E48.09886
G1 X23.754 Y13.165 E48.12956
G1 X24.361 Y13.415 E48.16068
G0 F3600 X77.829 Y9.381
G1 F1320 X77.618 Y9.17 E48.17482
G0 F3600 X77.052 Y9.17
G1 F1320 X77.829 Y9.947 E48.2269
G0 F3600 X77.829 Y10.513
G1 F1320 X76.487 Y9.17 E48.31689
G0 F3600 X75.921 Y9.17
G1 F1320 X77.829 Y11.078 E48.44477
G0 F3600 X77.829 Y11.644
G1 F1320 X75.355 Y9.17 E48.6106
G0 F3600 X74.789 Y9.17
G1 F1320 X77.829 Y12.21 E48.81437
G0 F3600 X77.829 Y12.776
G1 F1320 X74.224 Y9.17 E49.05603
G0 F3600 X73.658 Y9.17
G1 F1320 X77.829 Y13.341 E49.33561
G0 F3600 X77.829 Y13.907
G1 F1320 X73.092 Y9.17 E49.65312
G0 F3600 X72.527 Y9.17
G1 F1320 X77.829 Y14.473 E50.00853
G0 F3600 X77.829 Y15.038
G1 F1320 X71.961 Y9.17 E50.40185
G0 F3600 X71.395 Y9.17
G1 F1320 X77.829 Y15.604 E50.8331
G0 F3600 X77.829 Y16.17
G1 F1320 X70.83 Y9.17 E51.30226
G0 F3600 X70.264 Y9.17
G1 F1320 X77.829 Y16.735 E51.80933
G0 F3600 X77.829 Y17.301
G1 F1320 X69.698 Y9.17 E52.35433
G0 F3600 X69.133 Y9.17
G1 F1320 X77.829 Y17.867 E52.93723
G0 F3600 X77.829 Y18.432
G1 F1320 X68.567 Y9.17 E53.55804
G0 F3600 X68.001 Y9.17
G1 F1320 X77.829 Y18.998 E54.21679
G0 F3600 X77.829 Y19.564
G1 F1320 X67.436 Y9.17 E54.91344
G0 F3600 X66.87 Y9.17
G1 F1320 X77.829 Y20.129 E55.648
G0 F3600 X77.829 Y20.695
G1 F1320 X66.304 Y9.17 E56.42049
G0 F3600 X65.739 Y9.17
G1 F1320 X77.829 Y21.261 E57.23089
G0 F3600 X77.829 Y21.826
G1 F1320 X65.173 Y9.17 E58.07919
G0 F3600 X64.607 Y9.17
G1 F1320 X77.829 Y22.392 E58.96543
G0 F3600 X77.829 Y22.958
G1 F1320 X64.041 Y9.17 E59.88961
G0 F3600 X63.476 Y9.17
G1 F1320 X77.829 Y23.524 E60.85169
G0 F3600 X77.829 Y24.089
G1 F1320 X62.91 Y9.17 E61.85168
G0 F3600 X62.344 Y9.17
G1 F1320 X77.829 Y24.655 E62.8896
G0 F3600 X77.829 Y25.221
G1 F1320 X61.779 Y9.17 E63.96543
G0 F3600 X61.213 Y9.17
G1 F1320 X77.829 Y25.786 E65.07916
G0 F3600 X77.829 Y26.352
G1 F1320 X60.647 Y9.17 E66.23082
G0 F3600 X60.082 Y9.17
G1 F1320 X77.829 Y26.918 E67.4204
G0 F3600 X77.829 Y27.483
G1 F1320 X59.516 Y9.17 E68.64787
G0 F3600 X58.95 Y9.17
G1 F1320 X77.829 Y28.049 E69.91329
G0 F3600 X77.829 Y28.615
G1 F1320 X58.385 Y9.17 E71.21661
G0 F3600 X57.819 Y9.17
G1 F1320 X77.829 Y29.18 E72.55783
G0 F3600 X77.829 Y29.746
G1 F1320 X57.253 Y9.17 E73.93699
G0 F3600 X56.688 Y9.17
G1 F1320 X77.829 Y30.312 E75.35406
G0 F3600 X77.829 Y30.877
G1 F1320 X56.122 Y9.17 E76.80903
G0 F3600 X55.556 Y9.17
G1 F1320 X77.829 Y31.443 E78.30193
G0 F3600 X77.829 Y32.009
G1 F1320 X54.99 Y9.17 E79.83278
G0 F3600 X54.425 Y9.17
G1 F1320 X77.829 Y32.574 E81.40149
G0 F3600 X77.829 Y33.14
G1 F1320 X53.859 Y9.17 E83.00814
G0 F3600 X53.293 Y9.17
G1 F1320 X77.829 Y33.706 E84.65273
G0 F3600 X77.829 Y34.272
G1 F1320 X52.728 Y9.17 E86.33523
G0 F3600 X52.162 Y9.17
G1 F1320 X77.829 Y34.837 E88.05562
G0 F3600 X77.829 Y35.403
G1 F1320 X51.596 Y9.17 E89.81396
G0 F3600 X51.031 Y9.17
G1 F1320 X77.829 Y35.969 E91.6102
G0 F3600 X77.829 Y36.534
G1 F1320 X50.465 Y9.17 E93.44434
G0 F3600 X49.899 Y9.17
G1 F1320 X77.829 Y37.1 E95.31643
G0 F3600 X77.829 Y37.666
G1 F1320 X49.334 Y9.17 E97.22641
G0 F3600 X48.768 Y9.17
G1 F1320 X77.829 Y38.231 E99.1743
G0 F3600 X77.829 Y38.797
G1 F1320 X48.202 Y9.17 E101.16013
G0 F3600 X47.637 Y9.17
G1 F1320 X77.829 Y39.363 E103.18386
G0 F3600 X77.829 Y39.928
G1 F1320 X47.071 Y9.17 E105.2455
G0 F3600 X46.505 Y9.17
G1 F1320 X77.829 Y40.494 E107.34507
G0 F3600 X77.829 Y41.06
G1 F1320 X45.94 Y9.17 E109.48255
G0 F3600 X45.374 Y9.17
G1 F1320 X77.829 Y41.625 E111.65793
G0 F3600 X77.829 Y42.191
G1 F1320 X44.808 Y9.17 E113.87125
G0 F3600 X44.242 Y9.17
G1 F1320 X77.829 Y42.757 E116.12251
G0 F3600 X77.829 Y43.323
G1 F1320 X43.677 Y9.17 E118.41167
G0 F3600 X43.111 Y9.17
G1 F1320 X77.829 Y43.888 E120.73873
G0 F3600 X77.829 Y44.454
G1 F1320 X42.545 Y9.17 E123.10374
G0 F3600 X41.98 Y9.17
G1 F1320 X77.829 Y45.02 E125.50664
G0 F3600 X77.829 Y45.585
G1 F1320 X41.414 Y9.17 E127.94745
G0 F3600 X40.848 Y9.17
G1 F1320 X77.829 Y46.151 E130.4262
G0 F3600 X77.829 Y46.717
G1 F1320 X40.283 Y9.17 E132.94286
G0 F3600 X39.717 Y9.17
G1 F1320 X77.829 Y47.282 E135.49741
G0 F3600 X77.829 Y47.848
G1 F1320 X39.151 Y9.17 E138.08991
G0 F3600 X38.586 Y9.17
G1 F1320 X77.829 Y48.414 E140.72031
G0 F3600 X77.829 Y48.979
G1 F1320 X38.02 Y9.17 E143.38861
G0 F3600 X37.454 Y9.17
G1 F1320 X77.829 Y49.545 E146.09485
G0 F3600 X77.829 Y50.111
G1 F1320 X36.889 Y9.17 E148.839
G0 F3600 X36.323 Y9.17
G1 F1320 X77.829 Y50.676 E151.62104
G0 F3600 X77.829 Y51.242
G1 F1320 X35.757 Y9.17 E154.44103
G0 F3600 X35.191 Y9.17
G1 F1320 X77.829 Y51.808 E157.29895
G0 F3600 X77.829 Y52.373
G1 F1320 X34.626 Y9.17 E160.19475
G0 F3600 X34.06 Y9.17
G1 F1320 X77.829 Y52.939 E163.12848
G0 F3600 X77.829 Y53.505
G1 F1320 X33.494 Y9.17 E166.10015
G0 F3600 X32.929 Y9.17
G1 F1320 X77.829 Y54.071 E169.10973
G0 F3600 X77.829 Y54.636
G1 F1320 X32.363 Y9.17 E172.1572
G0 F3600 X31.797 Y9.17
G1 F1320 X77.829 Y55.202 E175.24262
G0 F3600 X77.829 Y55.768
G1 F1320 X31.232 Y9.17 E178.36594
G0 F3600 X30.666 Y9.17
G1 F1320 X77.829 Y56.333 E181.52716
G0 F3600 X77.829 Y56.899
G1 F1320 X30.1 Y9.17 E184.72633
G0 F3600 X29.535 Y9.17
G1 F1320 X77.829 Y57.465 E187.96339
G0 F3600 X77.829 Y58.03
G1 F1320 X28.969 Y9.17 E191.23836
G0 F3600 X28.403 Y9.17
G1 F1320 X77.829 Y58.596 E194.55127
G0 F3600 X77.829 Y59.162
G1 F1320 X27.838 Y9.17 E197.90208
G0 F3600 X27.272 Y9.17
G1 F1320 X77.829 Y59.727 E201.2908
G0 F3600 X77.829 Y60.293
G1 F1320 X27.409 Y9.873 E204.67033
G1 X27.339 Y9.803
G0 F3600 X27.635 Y10.665
G1 F1320 X77.829 Y60.859 E208.03472
G0 F3600 X77.829 Y61.424
G1 F1320 X27.647 Y11.242 E211.3983
G0 F3600 X27.572 Y11.733
G1 F1320 X77.829 Y61.99 E214.7669
G0 F3600 X77.829 Y62.556
G1 F1320 X27.406 Y12.133 E218.14664
G0 F3600 X27.203 Y12.495
G1 F1320 X77.829 Y63.122 E221.54001
G0 F3600 X77.829 Y63.687
G1 F1320 X26.957 Y12.815 E224.94984
G0 F3600 X26.656 Y13.08
G1 F1320 X77.829 Y64.253 E228.37985
G0 F3600 X77.829 Y64.819
G1 F1320 X26.333 Y13.322 E231.83154
G0 F3600 X25.934 Y13.489
G1 F1320 X77.829 Y65.384 E235.30993
G0 F3600 X77.829 Y65.95
G1 F1320 X25.494 Y13.614 E238.81786
G0 F3600 X24.996 Y13.682
G1 F1320 X77.829 Y66.516 E242.35916
G0 F3600 X77.829 Y67.081
G1 F1320 X24.342 Y13.594 E245.94427
G1 X24.272 Y13.524
G0 F3600 X22.169 Y13.683
G1 F1320 X77.829 Y69.344 E249.67506
G0 F3600 X77.829 Y68.778
G1 F1320 X22.169 Y13.118 E253.40582
G0 F3600 X22.169 Y12.552
G1 F1320 X77.829 Y68.213 E257.13661
G0 F3600 X77.829 Y67.647
G1 F1320 X22.169 Y11.986 E260.8674
G0 F3600 X22.406 Y11.658
G1 F1320 X22.169 Y11.421 E260.88329
G0 F3600 X22.319 Y11.005
G1 F1320 X22.169 Y10.855 E260.89334
G0 F3600 X22.384 Y10.504
G1 F1320 X22.169 Y10.289 E260.90775
G0 F3600 X22.51 Y10.065
G1 F1320 X22.169 Y9.724 E260.93061
G0 F3600 X22.676 Y9.665
G1 F1320 X22.181 Y9.17 E260.96379
G0 F3600 X22.746 Y9.17
G1 F1320 X22.92 Y9.344 E260.97545
G0 F3600 X22.169 Y14.249
G1 F1320 X77.829 Y69.91 E264.70624
G0 F3600 X77.829 Y70.475
G1 F1320 X22.169 Y14.815 E268.437
G0 F3600 X22.169 Y15.38
G1 F1320 X77.829 Y71.041 E272.16779
G0 F3600 X77.829 Y71.607
G1 F1320 X22.169 Y15.946 E275.89858
G0 F3600 X22.169 Y16.512
G1 F1320 X77.829 Y72.172 E279.62934
G0 F3600 X77.829 Y72.738
G1 F1320 X22.169 Y17.078 E283.3601
G0 F3600 X22.169 Y17.643
G1 F1320 X77.829 Y73.304 E287.09089
G0 F3600 X77.829 Y73.87
G1 F1320 X22.169 Y18.209 E290.82168
G0 F3600 X22.169 Y18.775
G1 F1320 X77.829 Y74.435 E294.55244
G0 F3600 X77.829 Y75.001
G1 F1320 X22.169 Y19.34 E298.28323
G0 F3600 X22.169 Y19.906
G1 F1320 X77.829 Y75.567 E302.01402
G0 F3600 X77.829 Y76.132
G1 F1320 X22.169 Y20.472 E305.74478
G0 F3600 X22.169 Y21.037
G1 F1320 X77.829 Y76.698 E309.47557
G0 F3600 X77.829 Y77.264
G1 F1320 X22.169 Y21.603 E313.20636
G0 F3600 X22.169 Y22.169
G1 F1320 X77.829 Y77.829 E316.93712
G0 F3600 X77.829 Y78.395
G1 F1320 X22.169 Y22.734 E320.66791
G0 F3600 X22.169 Y23.3
G1 F1320 X77.829 Y78.961 E324.3987
G0 F3600 X77.829 Y79.526
G1 F1320 X22.169 Y23.866 E328.12946
G0 F3600 X22.169 Y24.431
G1 F1320 X77.829 Y80.092 E331.86025
G0 F3600 X77.829 Y80.658
G1 F1320 X22.169 Y24.997 E335.59105
G0 F3600 X22.169 Y25.563
G1 F1320 X77.829 Y81.223 E339.3218
G0 F3600 X77.829 Y81.789
G1 F1320 X22.169 Y26.129 E343.05256
G0 F3600 X22.169 Y26.694
G1 F1320 X77.829 Y82.355 E346.78335
G0 F3600 X77.829 Y82.92
G1 F1320 X22.169 Y27.26 E350.51411
G0 F3600 X22.169 Y27.826
G1 F1320 X77.829 Y83.486 E354.24487
G0 F3600 X77.829 Y84.052
G1 F1320 X22.169 Y28.391 E357.97566
G0 F3600 X22.169 Y28.957
G1 F1320 X77.829 Y84.618 E361.70645
G0 F3600 X77.829 Y85.183
G1 F1320 X22.169 Y29.523 E365.43721
G0 F3600 X22.169 Y30.088
G1 F1320 X77.829 Y85.749 E369.168
G0 F3600 X77.829 Y86.315
G1 F1320 X22.169 Y30.654 E372.89879
G0 F3600 X22.169 Y31.22
G1 F1320 X77.829 Y86.88 E376.62955
G0 F3600 X77.829 Y87.446
G1 F1320 X22.169 Y31.785 E380.36034
G0 F3600 X22.169 Y32.351
G1 F1320 X77.829 Y88.012 E384.09113
G0 F3600 X77.829 Y88.577
G1 F1320 X22.169 Y32.917 E387.82189
G0 F3600 X22.169 Y33.482
G1 F1320 X77.829 Y89.143 E391.55268
G0 F3600 X77.829 Y89.709
G1 F1320 X22.169 Y34.048 E395.28347
G0 F3600 X22.169 Y34.614
G1 F1320 X77.829 Y90.274 E399.01423
G0 F3600 X77.829 Y90.84
G1 F1320 X22.169 Y35.179 E402.74502
G0 F3600 X22.169 Y35.745
G1 F1320 X77.829 Y91.406 E406.47582
G0 F3600 X77.829 Y91.971
G1 F1320 X22.169 Y36.311 E410.20657
G0 F3600 X22.169 Y36.877
G1 F1320 X77.829 Y92.537 E413.93733
G0 F3600 X77.829 Y93.103
G1 F1320 X22.169 Y37.442 E417.66812
G0 F3600 X22.169 Y38.008
G1 F1320 X77.829 Y93.669 E421.39891
G0 F3600 X77.829 Y94.234
G1 F1320 X22.169 Y38.574 E425.12967
G0 F3600 X22.169 Y39.139
G1 F1320 X77.829 Y94.8 E428.86046
G0 F3600 X77.829 Y95.366
G1 F1320 X22.169 Y39.705 E432.59126
G0 F3600 X22.169 Y40.271
G1 F1320 X77.829 Y95.931 E436.32201
G0 F3600 X77.829 Y96.497
G1 F1320 X22.169 Y40.836 E440.0528
G0 F3600 X22.169 Y41.402
G1 F1320 X77.829 Y97.063 E443.7836
G0 F3600 X77.829 Y97.628
