;FilamentType:PLA
;MachineType:ENTINA TINA2
;Extruder0Temperature:200
;BedTemperature:40
;InfillDensity:10
;FLAVOR:Marlin
;TIME:8907
;FilamentUsed: 6366.27
;Layer height: 0.15
;MINX:21.2
;MINY:8.2
;MINZ:0.3
;MAXX:78.8
;MAXY:111.8
;MAXZ:13.05
;Generated with Cura_SteamEngine 4.10.0
M82 ;absolute extrusion mode
;(**** start.gcode for TINA2****)
M104 S150
G28 Z
G28 X Y; Home extruder
G1 X55 Y55 F1000
G1 Z10 F200
G29
G1 Z15 F100
M107 ; Turn off fan
G90 ; Absolute positioning
M82 ; Extruder in absolute mode
M109 S215
G92 E0 ; Reset extruder position
G1 X90 Y6 Z0.27 F2000
G1 X20 Y6 Z0.27 E15 F1000 
G92 E0 ; Reset extruder position

M203 Z5
G92 E0
G92 E0
G1 F2100 E-3
;LAYER_COUNT:86
;LAYER:0
M107
;MESH:X68KFDuino-Top_Print.stl
G0 F3600 X70.071 Y25.551 Z0.3
;TYPE:WALL-INNER
G1 F2100 E0
G1 F1320 X70.057 Y25.553 E0.00067
G1 X69.987 Y25.544 E0.00402
G1 X69.556 Y25.482 E0.02465
G1 X69.556 Y25.295 E0.03352
G1 X70.013 Y25.233 E0.04745
G1 X70.031 Y25.23 E0.04824
G1 X70.107 Y25.242 E0.05114
G1 X70.515 Y25.308 E0.07073
G1 X70.505 Y25.498 E0.07975
G1 X70.071 Y25.551 E0.09301
G0 F3600 X70.537 Y25.912
;TYPE:WALL-OUTER
G1 F1320 X70.044 Y25.955 E0.11646
G1 X69.4 Y25.864 E0.14729
G1 X69.238 Y25.755 E0.15654
G1 X69.146 Y25.543 E0.1675
G1 X69.144 Y25.242 E0.18176
G1 X69.236 Y25.02 E0.19315
G1 X69.429 Y24.904 E0.20383
G1 X70.023 Y24.828 E0.23221
G1 X70.521 Y24.876 E0.25592
G1 X70.781 Y24.985 E0.26928
G1 X70.893 Y25.135 E0.27816
G1 X70.934 Y25.393 E0.29054
G1 X70.869 Y25.718 E0.30625
G1 X70.719 Y25.847 E0.31562
G1 X70.537 Y25.912 E0.32478
G0 F3600 X70.338 Y25.929
G0 X70.242 Y25.466
G1 F2100 E-2.67522
G0 F3600 X69.723 Y25.688
G0 X69.016 Y38.112
G0 X67.822 Y39.063
G0 X67.822 Y39.163
;TYPE:WALL-INNER
G1 F2100 E0.32478
G1 F1320 X67.606 Y39.163 E0.33502
G1 X67.623 Y38.947 E0.34152
G1 X67.649 Y38.639 E0.35617
G1 X67.74 Y38.399 E0.36834
G1 X67.851 Y38.28 E0.37605
G1 X68.06 Y38.183 E0.38697
G1 X68.457 Y38.113 E0.40608
G1 X69.016 Y38.093 E0.43259
G1 X69.939 Y38.161 E0.47645
G1 X70.258 Y38.269 E0.49241
G1 X70.374 Y38.364 E0.49952
G1 X70.464 Y38.539 E0.50885
G1 X70.503 Y38.944 E0.52813
G1 X70.524 Y39.163 E0.53856
G1 X70.304 Y39.163 E0.54513
G1 X67.823 Y39.163 E0.66272
G1 X67.822 Y39.163 E0.66277
G0 F3600 X67.822 Y39.063
G0 X70.45 Y39.096
G0 X70.93 Y39.358
;TYPE:WALL-OUTER
G1 F1320 X70.931 Y39.359 E0.66284
G1 X70.935 Y39.563 E0.67251
G1 X70.731 Y39.563 E0.67873
G1 X70.73 Y39.563 E0.67878
G1 X67.206 Y39.563 E0.8458
G1 X67.206 Y39.118 E0.86689
G1 X67.256 Y38.547 E0.89406
G1 X67.394 Y38.183 E0.91251
G1 X67.61 Y37.951 E0.92753
G1 X67.94 Y37.798 E0.94477
G1 X68.416 Y37.714 E0.96768
G1 X69.022 Y37.692 E0.99642
G1 X70.018 Y37.766 E1.04376
G1 X70.455 Y37.913 E1.06561
G1 X70.692 Y38.107 E1.08012
G1 X70.846 Y38.407 E1.09611
G1 X70.914 Y38.765 E1.11338
G1 X70.93 Y39.358 E1.14149
G0 F3600 X70.931 Y39.359
G0 X70.934 Y39.558
G0 X70.45 Y39.096
G0 X70.095 Y38.773
;TYPE:SKIN
G1 F1320 X68.029 Y38.773 E1.23941
G1 X68.085 Y38.601 E1.24799
G1 X68.496 Y38.503 E1.26801
G1 X69.019 Y38.483 E1.29282
G1 X69.859 Y38.545 E1.33274
G1 X70.084 Y38.651 E1.34453
G1 X70.095 Y38.773 E1.35033
G0 F3600 X70.084 Y38.763
G1 F2100 E-1.64967
G0 F3600 X70.341 Y51.774
G0 X70.209 Y52.469
G0 X70.227 Y52.568
;TYPE:WALL-INNER
G1 F2100 E1.35033
G1 F1320 X70.157 Y52.58 E1.3537
G1 X70.006 Y52.55 E1.361
G1 X69.855 Y52.44 E1.36985
G1 X69.865 Y52.422
G1 X69.898 Y52.36 E1.37292
G1 X70.123 Y51.947 E1.39522
G1 X70.162 Y51.875 E1.3991
G1 X70.27 Y51.773 E1.40614
G1 X70.343 Y51.755 E1.4097
G1 X70.441 Y51.805 E1.41491
G1 X70.503 Y51.931 E1.42157
G1 X70.514 Y52.012 E1.42544
G1 X70.531 Y52.125 E1.43086
G1 X70.495 Y52.352 E1.44175
G1 X70.421 Y52.48 E1.44876
G1 X70.326 Y52.549 E1.45433
G1 X70.227 Y52.568 E1.4591
G0 F3600 X70.489 Y52.925
;TYPE:WALL-OUTER
G1 F1320 X70.154 Y52.987 E1.47525
G1 X69.843 Y52.925 E1.49028
G1 X69.566 Y52.725 E1.50647
G1 X69.386 Y52.465 E1.52146
G1 X69.84 Y51.628 E1.56659
G1 X70.072 Y51.409 E1.58171
G1 X70.343 Y51.343 E1.59493
G1 X70.588 Y51.404 E1.6069
G1 X70.764 Y51.555 E1.61789
G1 X70.89 Y51.812 E1.63146
G1 X70.935 Y52.129 E1.64663
G1 X70.878 Y52.488 E1.66386
G1 X70.725 Y52.754 E1.6784
G1 X70.489 Y52.925 E1.69222
G0 F3600 X70.292 Y52.961
G0 X70.384 Y52.301
G1 F2100 E-1.30778
G0 F3600 X68.055 Y51.899
G0 X67.804 Y52.383
;TYPE:WALL-INNER
G1 F2100 E1.69222
G1 F1320 X67.702 Y52.435 E1.69764
G1 X67.64 Y52.322 E1.70375
G1 X67.623 Y51.995 E1.71927
G1 X67.721 Y51.781 E1.73043
G1 X67.946 Y51.793 E1.74111
G1 X68.074 Y51.896 E1.74889
G1 X68.04 Y51.958 E1.7501
G1 X67.926 Y52.162 E1.75991
G1 X67.804 Y52.383 E1.76723
G0 F3600 X67.931 Y52.803
;TYPE:WALL-OUTER
G1 F1320 X67.711 Y52.848 E1.77788
G1 X67.503 Y52.797 E1.78803
G1 X67.345 Y52.646 E1.79839
G1 X67.245 Y52.416 E1.81027
G1 X67.219 Y51.932 E1.83325
G1 X67.344 Y51.591 E1.85046
G1 X67.501 Y51.436 E1.86092
G1 X67.726 Y51.352 E1.8723
G1 X68.113 Y51.415 E1.89088
G1 X68.37 Y51.62 E1.90646
G1 X68.546 Y51.87 E1.92095
G1 X68.121 Y52.637 E1.96251
G1 X67.931 Y52.803 E1.97447
G0 F3600 X67.735 Y52.843
G1 F2100 E-1.02553
G0 F3600 X67.731 Y52.34
G0 X69.437 Y55.799
G0 X70.148 Y56.043
G0 X70.157 Y56.142
;TYPE:WALL-INNER
G1 F2100 E1.97447
G1 F1320 X69.967 Y56.162 E1.98353
G1 X69.788 Y56.139 E1.99208
G1 X69.577 Y56.113 E2.00216
G1 X69.421 Y55.999 E2.01131
G1 X69.423 Y55.786 E2.02141
G1 X69.53 Y55.772 E2.02449
G1 X69.741 Y55.744 E2.03387
G1 X69.926 Y55.718 E2.04272
G1 X70.192 Y55.744 E2.05539
G1 X70.346 Y55.758 E2.06272
G1 X70.367 Y55.76 E2.06372
G1 X70.45 Y55.795 E2.06799
G1 X70.514 Y55.822 E2.07128
G1 X70.518 Y55.986 E2.07906
G1 X70.468 Y56.053 E2.08302
G1 X70.311 Y56.126 E2.08985
G1 X70.157 Y56.142 E2.09691
G0 F3600 X70.418 Y56.517
;TYPE:WALL-OUTER
G1 F1320 X69.963 Y56.565 E2.11859
G1 X69.454 Y56.501 E2.14291
G1 X69.174 Y56.353 E2.15792
G1 X69.039 Y56.147 E2.16959
G1 X68.995 Y55.863 E2.18321
G1 X69.063 Y55.565 E2.1977
G1 X69.218 Y55.434 E2.20732
G1 X69.422 Y55.364 E2.21754
G1 X69.926 Y55.316 E2.24153
G1 X70.467 Y55.368 E2.26729
G1 X70.764 Y55.493 E2.28256
G1 X70.893 Y55.657 E2.29245
G1 X70.934 Y55.912 E2.3047
G1 X70.899 Y56.145 E2.31586
G1 X70.727 Y56.374 E2.32944
G1 X70.418 Y56.517 E2.34557
G0 F3600 X70.219 Y56.538
G0 X70.099 Y56.137
G1 F2100 E-0.65443
G0 F3600 X70.091 Y56.049
G0 X70.308 Y57.752
G0 X70.015 Y58.018
;TYPE:WALL-INNER
G1 F2100 E2.34557
G1 F1320 X70.15 Y57.989 E2.35212
G1 X70.478 Y57.92 E2.368
G1 X70.535 Y57.907 E2.37078
G1 X70.535 Y58.186 E2.37935
G1 X70.255 Y58.371 E2.39276
G1 X68.937 Y59.244 E2.46769
G1 X67.606 Y58.227 E2.54708
G1 X67.606 Y57.864 E2.56428
G1 X67.606 Y57.817 E2.56651
G1 X67.606 Y57.67 E2.57348
G1 X67.931 Y57.817 E2.58421
G1 X67.976 Y57.827 E2.58623
G1 X68.671 Y57.994 E2.62011
G1 X69.439 Y58.05 E2.65661
G1 X70.015 Y58.018 E2.68395
G0 F3600 X68.695 Y57.834
G0 X67.983 Y57.664
G0 X67.341 Y57.374
G0 X66.812 Y56.948
G0 X66.361 Y56.164
G0 X66.287 Y55.621
G0 X66.428 Y54.886
G0 X66.857 Y54.312
G0 X67.585 Y54.164
G0 X68.13 Y54.69
G0 X67.853 Y55.801
G1 F1320 X67.926 Y55.741 E2.68843
G1 X67.923 Y55.804
G1 X67.92 Y55.858
G1 X67.913 Y55.989 E2.69166
G1 X67.812 Y55.926 E2.69302
G1 X67.786 Y55.91
G1 X67.684 Y55.846 E2.69606
G1 X67.853 Y55.801 E2.69892
G0 F3600 X68.152 Y54.729
G0 X68.047 Y54.223
G1 F1320 X67.955 Y54.171 E2.70393
G1 X68.038 Y54.16 E2.70395
G1 X68.343 Y54.119 E2.71807
G1 X68.718 Y53.949 E2.73759
G1 X68.735 Y53.941 E2.73848
G1 X69.008 Y53.733 E2.75474
G1 X69.249 Y53.962 E2.7705
G1 X69.133 Y54.013 E2.77065
G1 X68.828 Y54.149 E2.78115
G1 X68.813 Y54.156 E2.78161
G1 X68.548 Y54.371 E2.79228
G1 X68.477 Y54.428 E2.79622
G1 X68.307 Y54.649 E2.80943
G1 X68.255 Y54.564
G1 X68.082 Y54.279 E2.82188
G1 X68.047 Y54.223
G0 F3600 X67.036 Y53.747
G0 X66.49 Y53.069
G0 X66.312 Y52.452
G0 X66.314 Y51.737
G0 X66.695 Y50.826
G0 X67.336 Y50.378
G0 X69.194 Y50.278
G1 F1320 X68.863 Y50.584 E2.84325
G1 X68.766 Y50.478 E2.85006
G1 X68.258 Y50.207 E2.87735
G1 X67.783 Y50.133 E2.90013
G1 X67.64 Y50.154 E2.90698
G1 X67.606 Y50.16 E2.90862
G1 X67.606 Y50.133
G1 X67.606 Y49.937 E2.91409
G1 X67.783 Y49.937 E2.91883
G1 X68.258 Y49.937 E2.93193
G1 X69.194 Y49.937 E2.97629
G1 X69.607 Y49.937 E2.99586
G1 X70.122 Y49.937 E3.02027
G1 X70.535 Y49.937 E3.03985
G1 X70.535 Y50.052 E3.0453
G1 X70.518 Y50.05
G1 X70.122 Y49.989 E3.04903
G1 X69.607 Y50.068 E3.05484
G1 X69.194 Y50.278 E3.06852
G0 F3600 X70.707 Y49.765
G0 X71.04 Y50.404
G0 X71.838 Y50.41
G0 X71.838 Y47.868
G0 X70.707 Y47.868
G0 X70.535 Y48.109
G1 F1320 X70.439 Y48.109 E3.07307
G1 X70.492 Y48.062
G1 X70.535 Y48.024
G1 X70.535 Y48.109 E3.07426
G0 F3600 X71.135 Y46.982
G0 X71.838 Y47.41
G0 X71.838 Y45.374
G0 X70.707 Y45.374
G0 X70.535 Y45.636
G1 F1320 X68.802 Y47.182 E3.18433
G1 X67.606 Y45.979 E3.26473
G1 X67.606 Y45.12 E3.30544
G1 X70.535 Y45.12 E3.44427
G1 X70.535 Y45.636 E3.46872
G0 F3600 X71.838 Y45.193
G0 X71.838 Y42.786
G0 X70.707 Y42.786
G0 X70.535 Y43.292
G1 F1320 X69.933 Y43.292 E3.49725
G1 X70.535 Y43.218 E3.49997
G1 X70.535 Y43.292 E3.50348
G0 F3600 X70.462 Y42.019
G0 X68.274 Y42.019
G0 X67.877 Y43.077
G0 X68.191 Y43.292
G1 F1320 X67.606 Y43.292 E3.53121
G1 X67.606 Y43.211 E3.53504
G1 X67.617 Y43.212
G1 X68.191 Y43.292 E3.53773
G0 F3600 X67.436 Y42.748
G0 X67.612 Y42.07
G0 X68.537 Y41.875
G0 X68.534 Y41.249
G0 X66.302 Y41.365
G0 X66.302 Y47.32
G0 X67.034 Y47.32
G0 X67.041 Y46.59
G0 X67.668 Y48.109
G1 F1320 X67.606 Y48.109 E3.54067
G1 X67.606 Y48.047 E3.5436
G1 X67.637 Y48.078
G1 X67.668 Y48.109
G0 F3600 X66.302 Y47.868
G0 X66.302 Y59.675
G0 X67.619 Y60.115
G1 F1320 X67.606 Y60.124 E3.54435
G1 X67.606 Y60.105 E3.54456
G1 X67.619 Y60.115 E3.54459
G0 F3600 X66.302 Y60.419
G0 X66.302 Y62.997
G0 X67.606 Y63.169
G1 F1320 X67.606 Y62.322 E3.58474
G1 X69.131 Y61.316 E3.67133
G1 X70.535 Y62.389 E3.75508
G1 X70.535 Y63.277 E3.79716
G1 X72.01 Y63.277 E3.86707
G1 X72.01 Y60.55 E3.99632
G1 X70.586 Y60.55 E4.06381
G1 X70.511 Y60.493 E4.06828
G1 X70.474 Y60.465 E4.07048
G1 X70.445 Y60.443 E4.0722
G1 X70.493 Y60.411 E4.07287
G1 X70.535 Y60.383 E4.07332
G1 X70.535 Y60.443 E4.07401
G1 X70.535 Y60.46
G1 X70.586 Y60.46
G1 X72.01 Y60.46 E4.0892
G1 X72.01 Y57.337 E4.23721
G1 X71.845 Y57.337 E4.24503
G1 X71.59 Y57.337 E4.25712
G1 X71.476 Y57.337 E4.26252
G1 X71.59 Y57.233 E4.26467
G1 X71.716 Y57.012 E4.27286
G1 X71.877 Y56.731 E4.28821
G1 X72.002 Y56.143 E4.3167
G1 X71.982 Y55.536 E4.34549
G1 X71.832 Y55.037 E4.37018
G1 X71.501 Y54.528 E4.39896
G1 X71.216 Y54.29 E4.41656
G1 X71.071 Y54.168 E4.42554
G1 X71.01 Y54.139 E4.42874
G1 X70.963 Y54.117 E4.4312
G1 X71.031 Y54.093 E4.43206
G1 X71.178 Y53.973 E4.43832
G1 X71.464 Y53.74 E4.4558
G1 X71.757 Y53.307 E4.48058
G1 X71.913 Y52.899 E4.50129
G1 X72.013 Y52.182 E4.5356
G1 X71.979 Y51.745 E4.55637
G1 X71.758 Y51.05 E4.59094
G1 X71.649 Y50.899 E4.59976
G1 X71.42 Y50.582 E4.6183
G1 X71.811 Y50.582 E4.62858
G1 X72.01 Y50.582 E4.63801
G1 X72.01 Y42.614 E5.01566
G1 X70.634 Y42.614 E5.08088
G1 X70.634 Y41.847 E5.11723
G1 X70.535 Y41.847 E5.12192
G1 X68.707 Y41.847 E5.20856
G1 X68.707 Y40.991 E5.24913
G1 X70.535 Y40.991 E5.33577
G1 X70.535 Y41.636 E5.36634
G1 X70.634 Y41.636 E5.36882
G1 X72.01 Y41.636 E5.43404
G1 X72.01 Y39.104 E5.55404
G1 X71.907 Y38.165 E5.59881
G1 X71.762 Y37.729 E5.62059
G1 X71.562 Y37.344 E5.64115
G1 X71.189 Y36.894 E5.66886
G1 X70.748 Y36.582 E5.69446
G1 X70.735 Y36.573 E5.69521
G1 X70.725 Y36.566 E5.69579
G1 X70.531 Y36.478 E5.70588
G1 X70.372 Y36.405 E5.71418
G1 X69.93 Y36.293 E5.73579
G1 X70.372 Y36.293 E5.73858
G1 X70.614 Y36.293 E5.74419
G1 X70.697 Y36.285 E5.74543
G1 X70.955 Y36.26 E5.75664
G1 X70.969 Y36.254 E5.75734
G1 X71.464 Y36.042 E5.78287
G1 X71.819 Y35.64 E5.80828
G1 X71.979 Y35.178 E5.83146
G1 X72.013 Y34.766 E5.85105
G1 X71.968 Y34.479 E5.86482
G1 X72.01 Y34.479
G1 X72.01 Y26.66 E6.23541
G1 X71.753 Y26.66 E6.24759
G1 X71.601 Y26.66 E6.25479
G1 X71.753 Y26.463 E6.2601
G1 X71.949 Y25.976 E6.28498
G1 X72.013 Y25.414 E6.31179
G1 X71.936 Y24.806 E6.34083
G1 X71.693 Y24.265 E6.36894
G1 X71.408 Y23.921 E6.39011
G1 X70.951 Y23.602 E6.41653
G1 X70.444 Y23.428 E6.44193
G1 X70.001 Y23.387 E6.46302
G1 X69.467 Y23.455 E6.48853
G1 X68.987 Y23.647 E6.51304
G1 X68.636 Y23.907 E6.53374
G1 X68.314 Y24.323 E6.55867
G1 X68.118 Y24.81 E6.58355
G1 X68.054 Y25.372 E6.61036
G1 X68.133 Y25.979 E6.63937
G1 X68.375 Y26.518 E6.66738
G1 X68.659 Y26.867 E6.6887
G1 X68.8 Y26.964 E6.69681
G1 X69.098 Y27.17 E6.71398
G1 X68.764 Y27.311 E6.72363
G1 X68.61 Y27.377 E6.73157
G1 X68.266 Y27.744 E6.75541
G1 X68.103 Y28.158 E6.7765
G1 X68.055 Y28.632 E6.79908
G1 X68.103 Y28.943 E6.814
G1 X68.057 Y28.943
G1 X68.057 Y30.759 E6.90007
G1 X68.057 Y31.026 E6.91272
G1 X68.057 Y31.135 E6.91789
G1 X67.977 Y31.026 E6.91934
G1 X67.742 Y30.9 E6.92764
G1 X67.563 Y30.804 E6.93726
G1 X67.252 Y30.77 E6.95209
G1 X66.877 Y30.845 E6.97022
G1 X66.545 Y31.06 E6.98896
G1 X66.331 Y31.393 E7.00772
G1 X66.26 Y31.78 E7.02637
G1 X66.348 Y32.172 E7.04541
G1 X66.584 Y32.492 E7.06426
G1 X66.915 Y32.69 E7.08254
G1 X67.294 Y32.754 E7.10076
G1 X67.67 Y32.683 E7.11889
G1 X67.685 Y32.681 E7.11961
G1 X68.013 Y32.465 E7.13822
G1 X68.057 Y32.399 E7.14198
G1 X68.057 Y32.465 E7.142
G1 X68.057 Y32.681 E7.14607
G1 X68.057 Y32.697 E7.14681
G1 X68.057 Y36.298 E7.31748
G1 X67.899 Y36.329 E7.32511
G1 X67.256 Y36.608 E7.35833
G1 X66.944 Y36.848 E7.37699
G1 X66.678 Y37.133 E7.39547
G1 X66.33 Y37.779 E7.43024
G1 X66.207 Y38.221 E7.45199
G1 X66.13 Y39.066 E7.4922
G1 X66.13 Y50.582 E8.03801
G1 X66.344 Y50.582 E8.04816
G1 X66.567 Y50.582 E8.05872
G1 X66.722 Y50.582 E8.06607
G1 X66.567 Y50.726 E8.06945
G1 X66.454 Y50.918 E8.07708
G1 X66.305 Y51.171 E8.09099
G1 X66.153 Y51.716 E8.11781
G1 X66.151 Y52.474 E8.15373
G1 X66.341 Y53.135 E8.18633
G1 X66.565 Y53.512 E8.20712
G1 X66.923 Y53.862 E8.23085
G1 X66.942 Y53.88 E8.23209
G1 X67.154 Y53.995 E8.24352
G1 X67.024 Y54.055 E8.24407
G1 X66.763 Y54.177 E8.2555
G1 X66.744 Y54.195 E8.25674
G1 X66.492 Y54.442 E8.27347
G1 X66.28 Y54.821 E8.29405
G1 X66.19 Y55.105 E8.30817
G1 X66.126 Y55.623 E8.33291
G1 X66.203 Y56.206 E8.36078
G1 X66.435 Y56.719 E8.38746
G1 X66.639 Y56.988 E8.40346
G1 X66.693 Y57.059 E8.40769
G1 X67.079 Y57.369 E8.43116
G1 X66.693 Y57.369 E8.43739
G1 X66.603 Y57.369 E8.44123
G1 X66.13 Y57.369 E8.46365
G1 X66.13 Y63.169 E8.73854
G1 X67.606 Y63.169 E8.8085
G0 F3600 X66.302 Y62.997
G0 X66.302 Y45.546
G0 X71.838 Y45.193
G0 X71.838 Y32.786
G0 X70.535 Y32.698
G1 F1320 X69.533 Y32.698 E8.85599
G1 X69.533 Y32.651 E8.85821
G1 X70.535 Y32.651 E8.86379
G1 X70.535 Y32.698 E8.86602
G0 F3600 X71.838 Y32.563
G0 X71.838 Y30.958
G0 X70.535 Y30.87
G1 F1320 X69.533 Y30.87 E8.91351
G1 X69.533 Y30.724 E8.92043
G1 X70.535 Y30.724 E8.93777
G1 X70.535 Y30.87 E8.94469
G0 F3600 X71.838 Y30.958
G0 X71.838 Y32.563
G0 X69.1 Y32.87
G0 X68.229 Y33.07
G0 X46.4 Y91.4
G1 F1320 X46.4 Y96.6 E9.19114
G1 X67.6 Y96.6 E10.19593
G1 X67.6 Y91.4 E10.44239
G1 X46.4 Y91.4 E11.44718
G0 F3600 X46.572 Y96.428
G0 X77.901 Y110.922
G1 F1320 X77.723 Y110.922 E11.45562
G1 X22.105 Y110.921 E14.09167
G1 X22.079 Y110.899 E14.09328
G1 X22.079 Y9.296 E18.90883
G1 X22.079 Y9.119 E18.91722
G1 X22.099 Y9.078 E18.91938
G1 X22.276 Y9.078 E18.92777
G1 X77.895 Y9.079 E21.56387
G1 X77.921 Y9.101 E21.56548
G1 X77.921 Y110.704 E26.38103
G1 X77.921 Y110.882 E26.38946
G1 X77.901 Y110.922 E26.39158
G0 F3600 X78.195 Y111.231
;TYPE:WALL-OUTER
G1 F1320 X77.993 Y111.322 E26.40208
G1 X22.005 Y111.321 E29.05567
G1 X21.767 Y111.193 E29.06848
G1 X21.679 Y110.978 E29.07949
G1 X21.679 Y9.025 E33.91163
G1 X21.806 Y8.768 E33.92521
G1 X22.007 Y8.678 E33.93565
G1 X77.995 Y8.679 E36.58924
G1 X78.233 Y8.807 E36.60205
G1 X78.321 Y9.022 E36.61306
