;FilamentType:PLA
;MachineType:ENTINA TINA2
;Extruder0Temperature:200
;BedTemperature:40
;InfillDensity:10
;FLAVOR:Marlin
;TIME:9119
;FilamentUsed: 6687.43
;Layer height: 0.15
;MINX:21.2
;MINY:8.2
;MINZ:0.3
;MAXX:78.8
;MAXY:111.8
;MAXZ:13.05
;Generated with Cura_SteamEngine 4.10.0
M82 ;absolute extrusion mode
;(**** start.gcode for TINA2****)
M104 S150
G28 Z
G28 X Y; Home extruder
G1 X55 Y55 F1000
G1 Z10 F200
G29
G1 Z15 F100
M107 ; Turn off fan
G90 ; Absolute positioning
M82 ; Extruder in absolute mode
M109 S215
G92 E0 ; Reset extruder position
G1 X90 Y6 Z0.27 F2000
G1 X20 Y6 Z0.27 E15 F1000 
G92 E0 ; Reset extruder position

M203 Z5
G92 E0
G92 E0
G1 F2100 E-3
;LAYER_COUNT:86
;LAYER:0
M107
;MESH:X68KFDuino-Top_Print.stl
G0 F3600 X46.4 Y91.4 Z0.3
;TYPE:WALL-INNER
G1 F2100 E0
G1 F1320 X46.4 Y96.6 E0.24646
G1 X67.6 Y96.6 E1.25125
G1 X67.6 Y91.4 E1.4977
G1 X46.4 Y91.4 E2.50249
G0 F3600 X46.33 Y91.33
G0 X46.372 Y96.628
G0 X77.849 Y110.838
G0 X77.901 Y110.922
G1 F1320 X77.723 Y110.922 E2.51093
G1 X22.105 Y110.921 E5.14698
G1 X22.079 Y110.899 E5.1486
G1 X22.079 Y9.296 E9.96414
G1 X22.079 Y9.119 E9.97253
G1 X22.099 Y9.078 E9.97469
G1 X22.276 Y9.078 E9.98308
G1 X77.895 Y9.079 E12.61918
G1 X77.921 Y9.101 E12.6208
G1 X77.921 Y110.704 E17.43634
G1 X77.921 Y110.882 E17.44478
G1 X77.901 Y110.922 E17.4469
G0 F3600 X78.195 Y111.231
;TYPE:WALL-OUTER
G1 F1320 X77.993 Y111.322 E17.4574
G1 X22.005 Y111.321 E20.11099
G1 X21.767 Y111.193 E20.1238
G1 X21.679 Y110.978 E20.13481
G1 X21.679 Y9.025 E24.96694
G1 X21.806 Y8.768 E24.98053
G1 X22.007 Y8.678 E24.99096
G1 X77.995 Y8.679 E27.64455
G1 X78.233 Y8.807 E27.65736
G1 X78.321 Y9.022 E27.66837
G1 X78.321 Y110.974 E32.50046
G1 X78.195 Y111.231 E32.51402
G0 F3600 X78.013 Y111.313
G0 X77.849 Y110.838
G0 X46.372 Y96.628
G0 X46.372 Y91.372
G0 X46.8 Y91.8
G1 F1320 X46.8 Y96.2 E32.72257
G1 X67.2 Y96.2 E33.68944
G1 X67.2 Y91.8 E33.89798
G1 X46.8 Y91.8 E34.86485
G0 F3600 X46.8 Y92
G0 X46.3 Y92
G0 X46.01 Y91.01
;TYPE:SKIN
G1 F1320 X46.01 Y96.99 E35.14828
G1 X67.99 Y96.99 E36.19003
G1 X67.99 Y91.01 E36.47346
G1 X46.01 Y91.01 E37.51522
G0 F3600 X22.469 Y110.531
G1 F1320 X22.469 Y9.468 E42.30517
G1 X77.531 Y9.469 E44.91487
G1 X77.531 Y110.532 E49.70482
G1 X22.469 Y110.531 E52.31452
G0 F3600 X23.234 Y110.35
G1 F1320 X22.648 Y109.764 E52.3538
G0 F3600 X22.648 Y109.198
G1 F1320 X23.8 Y110.35 E52.43102
G0 F3600 X24.366 Y110.35
G1 F1320 X22.648 Y108.632 E52.54617
G0 F3600 X22.648 Y108.067
G1 F1320 X24.931 Y110.35 E52.69919
G0 F3600 X25.497 Y110.35
G1 F1320 X22.648 Y107.501 E52.89016
G0 F3600 X22.648 Y106.935
G1 F1320 X26.063 Y110.35 E53.11906
G0 F3600 X26.628 Y110.35
G1 F1320 X22.648 Y106.37 E53.38583
G0 F3600 X22.648 Y105.804
G1 F1320 X27.194 Y110.35 E53.69053
G0 F3600 X27.76 Y110.35
G1 F1320 X22.648 Y105.238 E54.03318
G0 F3600 X22.648 Y104.673
G1 F1320 X28.325 Y110.35 E54.41369
G0 F3600 X28.891 Y110.35
G1 F1320 X22.648 Y104.107 E54.83215
G0 F3600 X22.648 Y103.541
G1 F1320 X29.457 Y110.35 E55.28854
G0 F3600 X30.023 Y110.35
G1 F1320 X22.648 Y102.975 E55.78287
G0 F3600 X22.648 Y102.41
G1 F1320 X30.588 Y110.35 E56.31507
G0 F3600 X31.154 Y110.35
G1 F1320 X22.648 Y101.844 E56.8852
G0 F3600 X22.648 Y101.278
G1 F1320 X31.72 Y110.35 E57.49328
G0 F3600 X32.285 Y110.35
G1 F1320 X22.648 Y100.713 E58.13922
G0 F3600 X22.648 Y100.147
G1 F1320 X32.851 Y110.35 E58.82311
G0 F3600 X33.417 Y110.35
G1 F1320 X22.648 Y99.581 E59.54493
G0 F3600 X22.648 Y99.016
G1 F1320 X33.982 Y110.35 E60.30462
G0 F3600 X34.548 Y110.35
G1 F1320 X22.648 Y98.45 E61.10225
G0 F3600 X22.648 Y97.884
G1 F1320 X35.114 Y110.35 E61.93781
G0 F3600 X35.679 Y110.35
G1 F1320 X22.648 Y97.319 E62.81125
G0 F3600 X22.648 Y96.753
G1 F1320 X36.245 Y110.35 E63.72263
G0 F3600 X36.811 Y110.35
G1 F1320 X22.648 Y96.187 E64.67194
G0 F3600 X22.648 Y95.622
G1 F1320 X37.376 Y110.35 E65.65912
G0 F3600 X37.942 Y110.35
G1 F1320 X22.648 Y95.056 E66.68424
G0 F3600 X22.648 Y94.49
G1 F1320 X38.508 Y110.35 E67.7473
G0 F3600 X39.074 Y110.35
G1 F1320 X22.648 Y93.924 E68.8483
G0 F3600 X22.648 Y93.359
G1 F1320 X39.639 Y110.35 E69.98716
G0 F3600 X40.205 Y110.35
G1 F1320 X22.648 Y92.793 E71.16397
G0 F3600 X22.648 Y92.227
G1 F1320 X40.771 Y110.35 E72.37871
G0 F3600 X41.336 Y110.35
G1 F1320 X22.648 Y91.662 E73.63132
G0 F3600 X22.648 Y91.096
G1 F1320 X41.902 Y110.35 E74.92187
G0 F3600 X42.468 Y110.35
G1 F1320 X22.648 Y90.53 E76.25036
G0 F3600 X22.648 Y89.965
G1 F1320 X43.033 Y110.35 E77.61672
G0 F3600 X43.599 Y110.35
G1 F1320 X22.648 Y89.399 E79.02101
G0 F3600 X22.648 Y88.833
G1 F1320 X44.165 Y110.35 E80.46325
G0 F3600 X44.73 Y110.35
G1 F1320 X22.648 Y88.268 E81.94335
G0 F3600 X22.648 Y87.702
G1 F1320 X45.296 Y110.35 E83.46139
G0 F3600 X45.862 Y110.35
G1 F1320 X22.648 Y87.136 E85.01737
G0 F3600 X22.648 Y86.571
G1 F1320 X46.427 Y110.35 E86.61122
G0 F3600 X46.993 Y110.35
G1 F1320 X22.648 Y86.005 E88.24301
G0 F3600 X22.648 Y85.439
G1 F1320 X47.559 Y110.35 E89.91273
G0 F3600 X48.124 Y110.35
G1 F1320 X22.648 Y84.874 E91.62033
G0 F3600 X22.648 Y84.308
G1 F1320 X48.69 Y110.35 E93.36586
G0 F3600 X49.256 Y110.35
G1 F1320 X22.648 Y83.742 E95.14933
G0 F3600 X22.648 Y83.176
G1 F1320 X49.822 Y110.35 E96.97074
G0 F3600 X50.388 Y110.351
G1 F1320 X22.648 Y82.611 E98.83009
G0 F3600 X22.648 Y82.045
G1 F1320 X50.954 Y110.351 E100.72737
G0 F3600 X51.519 Y110.351
G1 F1320 X22.648 Y81.479 E102.66256
G0 F3600 X22.648 Y80.914
G1 F1320 X52.085 Y110.351 E104.63566
G0 F3600 X52.651 Y110.351
G1 F1320 X22.648 Y80.348 E106.64669
G0 F3600 X22.648 Y79.782
G1 F1320 X53.216 Y110.351 E108.69562
G0 F3600 X53.782 Y110.351
G1 F1320 X22.648 Y79.217 E110.78246
G0 F3600 X22.648 Y78.651
G1 F1320 X54.348 Y110.351 E112.90723
G0 F3600 X54.913 Y110.351
G1 F1320 X22.648 Y78.085 E115.06991
G0 F3600 X22.648 Y77.52
G1 F1320 X55.479 Y110.351 E117.2705
G0 F3600 X56.045 Y110.351
G1 F1320 X22.648 Y76.954 E119.50902
G0 F3600 X22.648 Y76.388
G1 F1320 X56.61 Y110.351 E121.78545
G0 F3600 X57.176 Y110.351
G1 F1320 X22.648 Y75.823 E124.09978
G0 F3600 X22.648 Y75.257
G1 F1320 X57.742 Y110.351 E126.45204
G0 F3600 X58.308 Y110.351
G1 F1320 X22.648 Y74.691 E128.84225
G0 F3600 X22.648 Y74.126
G1 F1320 X58.873 Y110.351 E131.27032
G0 F3600 X59.439 Y110.351
G1 F1320 X46.258 Y97.169 E132.15385
G0 F3600 X46.823 Y97.169
G1 F1320 X60.005 Y110.351 E133.03741
G0 F3600 X60.57 Y110.351
G1 F1320 X47.389 Y97.169 E133.92093
G0 F3600 X47.955 Y97.169
G1 F1320 X61.136 Y110.351 E134.80446
G0 F3600 X61.702 Y110.351
G1 F1320 X48.52 Y97.169 E135.68801
G0 F3600 X49.086 Y97.169
G1 F1320 X62.267 Y110.351 E136.57154
G0 F3600 X62.833 Y110.351
G1 F1320 X49.652 Y97.169 E137.45506
G0 F3600 X50.218 Y97.169
G1 F1320 X63.399 Y110.351 E138.33859
G0 F3600 X63.964 Y110.351
G1 F1320 X50.783 Y97.169 E139.22211
G0 F3600 X51.349 Y97.169
G1 F1320 X64.53 Y110.351 E140.10564
G0 F3600 X65.096 Y110.351
G1 F1320 X51.915 Y97.169 E140.98916
G0 F3600 X52.48 Y97.169
G1 F1320 X65.661 Y110.351 E141.87269
G0 F3600 X66.227 Y110.351
G1 F1320 X53.046 Y97.169 E142.75621
G0 F3600 X53.612 Y97.169
G1 F1320 X66.793 Y110.351 E143.63974
G0 F3600 X67.358 Y110.351
G1 F1320 X54.177 Y97.169 E144.52326
G0 F3600 X54.743 Y97.169
G1 F1320 X67.924 Y110.351 E145.40679
G0 F3600 X68.49 Y110.351
G1 F1320 X55.309 Y97.169 E146.29031
G0 F3600 X55.874 Y97.169
G1 F1320 X69.056 Y110.351 E147.17387
G0 F3600 X69.621 Y110.351
G1 F1320 X56.44 Y97.169 E148.05739
G0 F3600 X57.006 Y97.169
G1 F1320 X70.187 Y110.351 E148.94092
G0 F3600 X70.753 Y110.351
G1 F1320 X57.571 Y97.169 E149.82448
G0 F3600 X58.137 Y97.169
G1 F1320 X71.318 Y110.351 E150.708
G0 F3600 X71.884 Y110.351
G1 F1320 X58.703 Y97.169 E151.59153
G0 F3600 X59.268 Y97.169
G1 F1320 X72.45 Y110.351 E152.47509
G0 F3600 X73.015 Y110.351
G1 F1320 X59.834 Y97.169 E153.35861
G0 F3600 X60.4 Y97.169
G1 F1320 X73.581 Y110.351 E154.24213
G0 F3600 X74.147 Y110.351
G1 F1320 X60.966 Y97.169 E155.12566
G0 F3600 X61.531 Y97.169
G1 F1320 X74.712 Y110.351 E156.00918
G0 F3600 X75.278 Y110.351
G1 F1320 X62.097 Y97.169 E156.89271
G0 F3600 X62.663 Y97.169
G1 F1320 X75.844 Y110.351 E157.77623
G0 F3600 X76.409 Y110.351
G1 F1320 X63.228 Y97.169 E158.65976
G0 F3600 X63.794 Y97.169
G1 F1320 X76.975 Y110.351 E159.54328
G0 F3600 X77.351 Y110.16
G1 F1320 X64.36 Y97.169 E160.41404
G0 F3600 X64.925 Y97.169
G1 F1320 X77.351 Y109.595 E161.24692
G0 F3600 X77.351 Y109.029
G1 F1320 X65.491 Y97.169 E162.04187
G0 F3600 X66.057 Y97.169
G1 F1320 X77.351 Y108.463 E162.79888
G0 F3600 X77.351 Y107.898
G1 F1320 X66.622 Y97.169 E163.51802
G0 F3600 X67.188 Y97.169
G1 F1320 X77.351 Y107.332 E164.19922
G0 F3600 X77.351 Y106.766
G1 F1320 X67.754 Y97.169 E164.84249
G0 F3600 X68.169 Y97.019
G1 F1320 X77.351 Y106.201 E165.45794
G0 F3600 X77.351 Y105.635
G1 F1320 X68.169 Y96.453 E166.07338
G0 F3600 X68.169 Y95.887
G1 F1320 X77.351 Y105.069 E166.68883
G0 F3600 X77.351 Y104.504
G1 F1320 X68.169 Y95.322 E167.30428
G0 F3600 X68.169 Y94.756
G1 F1320 X77.351 Y103.938 E167.91973
G0 F3600 X77.351 Y103.372
G1 F1320 X68.169 Y94.19 E168.53517
G0 F3600 X68.169 Y93.625
G1 F1320 X77.351 Y102.806 E169.15059
G0 F3600 X77.351 Y102.241
G1 F1320 X68.169 Y93.059 E169.76604
G0 F3600 X68.169 Y92.493
G1 F1320 X77.351 Y101.675 E170.38148
G0 F3600 X77.351 Y101.109
G1 F1320 X68.169 Y91.928 E170.9969
G0 F3600 X68.169 Y91.362
G1 F1320 X77.351 Y100.544 E171.61235
G0 F3600 X77.351 Y99.978
G1 F1320 X22.648 Y45.276 E175.27892
G0 F3600 X22.648 Y45.841
G1 F1320 X67.636 Y90.829 E178.29436
G0 F3600 X67.07 Y90.829
G1 F1320 X22.648 Y46.407 E181.27186
G0 F3600 X22.648 Y46.973
G1 F1320 X66.504 Y90.829 E184.21143
G0 F3600 X65.939 Y90.829
G1 F1320 X22.648 Y47.538 E187.11312
G0 F3600 X22.648 Y48.104
G1 F1320 X65.373 Y90.829 E189.97688
G0 F3600 X64.807 Y90.829
G1 F1320 X22.648 Y48.67 E192.8027
G0 F3600 X22.648 Y49.235
G1 F1320 X64.242 Y90.829 E195.59064
G0 F3600 X63.676 Y90.829
G1 F1320 X22.648 Y49.801 E198.34065
G0 F3600 X22.648 Y50.367
G1 F1320 X63.11 Y90.829 E201.05272
G0 F3600 X62.545 Y90.829
G1 F1320 X22.648 Y50.932 E203.72693
G0 F3600 X22.648 Y51.498
G1 F1320 X61.979 Y90.829 E206.36319
G0 F3600 X61.413 Y90.829
G1 F1320 X22.648 Y52.064 E208.96152
G0 F3600 X22.648 Y52.629
G1 F1320 X60.847 Y90.829 E211.52194
G0 F3600 X60.282 Y90.829
G1 F1320 X22.648 Y53.195 E214.04446
G0 F3600 X22.648 Y53.761
G1 F1320 X59.716 Y90.829 E216.52904
G0 F3600 X59.15 Y90.829
G1 F1320 X22.648 Y54.327 E218.97568
G0 F3600 X22.648 Y54.892
G1 F1320 X58.585 Y90.829 E221.38445
G0 F3600 X58.019 Y90.829
G1 F1320 X22.648 Y55.458 E223.75528
G0 F3600 X22.648 Y56.024
G1 F1320 X57.453 Y90.829 E226.08818
G0 F3600 X56.888 Y90.829
G1 F1320 X22.648 Y56.589 E228.38321
G0 F3600 X22.648 Y57.155
G1 F1320 X56.322 Y90.829 E230.6403
G0 F3600 X55.756 Y90.829
G1 F1320 X22.648 Y57.721 E232.85945
G0 F3600 X22.648 Y58.286
G1 F1320 X55.191 Y90.829 E235.04073
G0 F3600 X54.625 Y90.829
G1 F1320 X22.648 Y58.852 E237.18407
G0 F3600 X22.648 Y59.418
G1 F1320 X54.059 Y90.829 E239.28947
G0 F3600 X53.494 Y90.829
G1 F1320 X22.648 Y59.983 E241.35701
G0 F3600 X22.648 Y60.549
G1 F1320 X52.928 Y90.829 E243.3866
G0 F3600 X52.362 Y90.829
G1 F1320 X22.648 Y61.115 E245.37826
G0 F3600 X22.648 Y61.68
G1 F1320 X51.796 Y90.829 E247.33202
G0 F3600 X51.231 Y90.829
G1 F1320 X22.648 Y62.246 E249.24787
G0 F3600 X22.648 Y62.812
G1 F1320 X50.665 Y90.829 E251.12578
G0 F3600 X50.099 Y90.829
G1 F1320 X22.648 Y63.377 E252.96579
G0 F3600 X22.648 Y63.943
G1 F1320 X49.534 Y90.829 E254.7679
G0 F3600 X48.968 Y90.829
G1 F1320 X22.648 Y64.509 E256.53206
G0 F3600 X22.648 Y65.075
G1 F1320 X48.402 Y90.829 E258.25829
G0 F3600 X47.837 Y90.829
G1 F1320 X22.648 Y65.64 E259.94665
G0 F3600 X22.648 Y66.206
G1 F1320 X47.271 Y90.829 E261.59707
G0 F3600 X46.705 Y90.829
G1 F1320 X22.648 Y66.772 E263.20956
G0 F3600 X22.648 Y67.337
G1 F1320 X46.14 Y90.829 E264.78417
G0 F3600 X45.83 Y91.085
G1 F1320 X22.648 Y67.903 E266.33801
G0 F3600 X22.648 Y68.469
G1 F1320 X45.83 Y91.65 E267.89181
G0 F3600 X45.83 Y92.216
G1 F1320 X22.648 Y69.034 E269.44564
G0 F3600 X22.648 Y69.6
G1 F1320 X45.83 Y92.782 E270.99948
G0 F3600 X45.83 Y93.347
G1 F1320 X22.648 Y70.166 E272.55328
G0 F3600 X22.648 Y70.731
G1 F1320 X45.83 Y93.913 E274.10711
G0 F3600 X45.83 Y94.479
G1 F1320 X22.648 Y71.297 E275.66095
G0 F3600 X22.648 Y71.863
G1 F1320 X45.83 Y95.045 E277.21478
G0 F3600 X45.83 Y95.61
G1 F1320 X22.648 Y72.428 E278.76861
G0 F3600 X22.648 Y72.994
G1 F1320 X45.83 Y96.176 E280.32245
G0 F3600 X45.83 Y96.742
G1 F1320 X22.648 Y73.56 E281.87628
G1 X22.578 Y73.49
G0 F3600 X22.648 Y44.71
G1 F1320 X77.351 Y99.412 E285.54286
G0 F3600 X77.351 Y98.847
G1 F1320 X22.648 Y44.144 E289.20948
G0 F3600 X22.648 Y43.578
G1 F1320 X77.351 Y98.281 E292.87609
G0 F3600 X77.351 Y97.715
G1 F1320 X22.648 Y43.013 E296.54267
G0 F3600 X22.648 Y42.447
G1 F1320 X77.351 Y97.15 E300.20928
G0 F3600 X77.351 Y96.584
G1 F1320 X22.648 Y41.881 E303.87589
G0 F3600 X22.648 Y41.316
G1 F1320 X77.351 Y96.018 E307.54247
G0 F3600 X77.351 Y95.453
G1 F1320 X22.648 Y40.75 E311.20908
G0 F3600 X22.648 Y40.184
G1 F1320 X77.351 Y94.887 E314.8757
G0 F3600 X77.351 Y94.321
G1 F1320 X22.648 Y39.619 E318.54227
G0 F3600 X22.648 Y39.053
G1 F1320 X77.351 Y93.755 E322.20885
G0 F3600 X77.351 Y93.19
G1 F1320 X22.648 Y38.487 E325.87547
G0 F3600 X22.648 Y37.922
G1 F1320 X77.351 Y92.624 E329.54205
G0 F3600 X77.351 Y92.058
G1 F1320 X22.648 Y37.356 E333.20862
G0 F3600 X22.648 Y36.79
G1 F1320 X77.351 Y91.493 E336.87524
G0 F3600 X77.351 Y90.927
G1 F1320 X22.648 Y36.225 E340.54182
G0 F3600 X22.648 Y35.659
G1 F1320 X77.351 Y90.361 E344.20839
G0 F3600 X77.351 Y89.796
G1 F1320 X22.648 Y35.093 E347.87501
G0 F3600 X22.648 Y34.528
G1 F1320 X77.351 Y89.23 E351.54159
G0 F3600 X77.351 Y88.664
G1 F1320 X22.648 Y33.962 E355.20817
G0 F3600 X22.648 Y33.396
G1 F1320 X77.351 Y88.099 E358.87478
G0 F3600 X77.351 Y87.533
G1 F1320 X22.648 Y32.83 E362.54139
G0 F3600 X22.648 Y32.265
G1 F1320 X77.351 Y86.967 E366.20797
G0 F3600 X77.351 Y86.402
G1 F1320 X22.648 Y31.699 E369.87458
G0 F3600 X22.648 Y31.133
G1 F1320 X77.351 Y85.836 E373.54119
G0 F3600 X77.351 Y85.27
G1 F1320 X22.648 Y30.568 E377.20777
G0 F3600 X22.648 Y30.002
G1 F1320 X77.351 Y84.705 E380.87439
G0 F3600 X77.351 Y84.139
G1 F1320 X22.648 Y29.436 E384.541
G0 F3600 X22.648 Y28.871
G1 F1320 X77.351 Y83.573 E388.20758
G0 F3600 X77.351 Y83.007
G1 F1320 X22.648 Y28.305 E391.87416
G0 F3600 X22.648 Y27.739
G1 F1320 X77.351 Y82.442 E395.54077
G0 F3600 X77.351 Y81.876
G1 F1320 X22.648 Y27.174 E399.20735
G0 F3600 X22.648 Y26.608
G1 F1320 X77.351 Y81.31 E402.87393
G0 F3600 X77.351 Y80.745
G1 F1320 X22.648 Y26.042 E406.54054
G0 F3600 X22.648 Y25.477
G1 F1320 X77.351 Y80.179 E410.20712
G0 F3600 X77.351 Y79.613
G1 F1320 X22.648 Y24.911 E413.8737
G0 F3600 X22.648 Y24.345
G1 F1320 X77.351 Y79.048 E417.54031
G0 F3600 X77.351 Y78.482
G1 F1320 X22.648 Y23.78 E421.20689
G0 F3600 X22.648 Y23.214
G1 F1320 X77.351 Y77.916 E424.87347
G0 F3600 X77.351 Y77.351
G1 F1320 X22.648 Y22.648 E428.54008
G0 F3600 X22.648 Y22.082
G1 F1320 X77.351 Y76.785 E432.20669
G0 F3600 X77.351 Y76.219
G1 F1320 X22.648 Y21.517 E435.87327
G0 F3600 X22.648 Y20.951
G1 F1320 X77.351 Y75.654 E439.53988
G0 F3600 X77.351 Y75.088
G1 F1320 X22.648 Y20.385 E443.2065
G0 F3600 X22.648 Y19.82
G1 F1320 X77.351 Y74.522 E446.87308
G0 F3600 X77.351 Y73.957
G1 F1320 X22.648 Y19.254 E450.53969
G0 F3600 X22.648 Y18.688
G1 F1320 X77.351 Y73.391 E454.2063
G0 F3600 X77.351 Y72.825
G1 F1320 X22.648 Y18.123 E457.87288
G0 F3600 X22.648 Y17.557
G1 F1320 X77.351 Y72.259 E461.53946
G0 F3600 X77.351 Y71.694
G1 F1320 X22.648 Y16.991 E465.20607
G0 F3600 X22.648 Y16.426
G1 F1320 X77.351 Y71.128 E468.87265
G0 F3600 X77.351 Y70.562
G1 F1320 X22.648 Y15.86 E472.53923
