;FilamentType:PLA
;MachineType:ENTINA TINA2
;Extruder0Temperature:200
;BedTemperature:40
;InfillDensity:10
;FLAVOR:Marlin
;TIME:8278
;FilamentUsed: 5986.49
;Layer height: 0.15
;MINX:21.2
;MINY:8.2
;MINZ:0.3
;MAXX:78.8
;MAXY:111.8
;MAXZ:10.05
;Generated with Cura_SteamEngine 4.10.0
M82 ;absolute extrusion mode
;(**** start.gcode for TINA2****)
M104 S150
G28 Z
G28 X Y; Home extruder
G1 X55 Y55 F1000
G1 Z10 F200
G29
G1 Z15 F100
M107 ; Turn off fan
G90 ; Absolute positioning
M82 ; Extruder in absolute mode
M109 S215
G92 E0 ; Reset extruder position
G1 X90 Y6 Z0.27 F2000
G1 X20 Y6 Z0.27 E15 F1000 
G92 E0 ; Reset extruder position

M203 Z5
G92 E0
G92 E0
G1 F2100 E-3
;LAYER_COUNT:66
;LAYER:0
M107
;MESH:X68KFDuino-Bottom_Print.stl
G0 F3600 X26.484 Y9.507 Z0.3
;TYPE:WALL-INNER
G1 F2100 E0
G1 F1320 X26.409 Y9.45 E0.00446
G1 X26.484 Y9.45 E0.0045
G1 X26.832 Y9.45 E0.02099
G1 X77.55 Y9.45 E2.42481
G1 X77.55 Y110.55 E7.21651
G1 X25.83 Y110.55 E9.66782
G1 X25.49 Y110.55 E9.68393
G1 X25.409 Y110.55 E9.68777
G1 X25.49 Y110.488 E9.68882
G1 X25.695 Y110.218 E9.6988
G1 X25.826 Y110.045 E9.70909
G1 X26.035 Y109.538 E9.73508
G1 X26.106 Y108.999 E9.76085
G1 X26.031 Y108.449 E9.78715
G1 X25.823 Y107.947 E9.81291
G1 X25.488 Y107.51 E9.83901
G1 X25.046 Y107.174 E9.86532
G1 X24.544 Y106.966 E9.89107
G1 X23.992 Y106.896 E9.91745
G1 X23.448 Y106.969 E9.94346
G1 X22.942 Y107.181 E9.96946
G1 X22.783 Y107.304 E9.97899
G1 X22.508 Y107.516 E9.99545
G1 X22.45 Y107.592 E9.99998
G1 X22.45 Y107.516 E10.00002
G1 X22.45 Y107.168 E10.0102
G1 X22.45 Y9.45 E14.64161
G1 X23.17 Y9.45 E14.67574
G1 X23.507 Y9.45 E14.69171
G1 X23.593 Y9.45 E14.69579
G1 X23.507 Y9.516 E14.69691
G1 X23.303 Y9.783 E14.70687
G1 X23.176 Y9.949 E14.71678
G1 X22.965 Y10.462 E14.74307
G1 X22.895 Y11 E14.76878
G1 X22.966 Y11.544 E14.79478
G1 X23.177 Y12.053 E14.8209
G1 X23.516 Y12.493 E14.84722
G1 X23.949 Y12.824 E14.87305
G1 X24.462 Y13.035 E14.89934
G1 X25.001 Y13.106 E14.92511
G1 X25.552 Y13.031 E14.95147
G1 X26.057 Y12.82 E14.97741
G1 X26.489 Y12.489 E15.0032
G1 X26.824 Y12.052 E15.0293
G1 X27.034 Y11.544 E15.05535
G1 X27.105 Y11 E15.08135
G1 X27.034 Y10.456 E15.10736
G1 X26.823 Y9.947 E15.13347
G1 X26.696 Y9.782 E15.14334
G1 X26.484 Y9.507 E15.15346
G0 F3600 X26.877 Y10.498
G0 X22.257 Y109
G0 X22.315 Y110.013
G0 X22.591 Y110.55
G1 F1320 X22.45 Y110.55 E15.16015
G1 X22.45 Y110.407 E15.16692
G1 X22.521 Y110.479 E15.16702
G1 X22.591 Y110.55 E15.16711
G0 F3600 X23.326 Y110.95
;TYPE:WALL-OUTER
G1 F1320 X22.05 Y110.95 E15.22759
G1 X22.05 Y109.674 E15.28807
G1 X22.05 Y109.441 E15.29911
G1 X22.05 Y109 E15.32001
G1 X22.05 Y108.56 E15.34087
G1 X22.05 Y108.324 E15.35205
G1 X22.05 Y9.05 E20.05721
G1 X24.324 Y9.05 E20.16499
G1 X24.56 Y9.05 E20.17617
G1 X25 Y9.05 E20.19703
G1 X25.434 Y9.05 E20.2176
G1 X25.674 Y9.05 E20.22897
G1 X77.95 Y9.05 E22.70663
G1 X77.95 Y110.95 E27.53625
G1 X24.675 Y110.95 E30.06126
G1 X24.441 Y110.95 E30.07235
G1 X24 Y110.95 E30.09325
G1 X23.566 Y110.95 E30.11382
G1 X23.326 Y110.95 E30.12519
G0 F3600 X23.126 Y110.95
G0 X23.566 Y110.645
G1 F1320 X24 Y110.702 E30.13957
G1 X24.441 Y110.644 E30.15421
G1 X24.657 Y110.554 E30.16402
G1 X24.855 Y110.471 E30.1742
G1 X25.204 Y110.203 E30.19505
G1 X25.476 Y109.845 E30.21636
G1 X25.645 Y109.434 E30.23743
G1 X25.702 Y109 E30.25817
G1 X25.642 Y108.554 E30.2795
G1 X25.474 Y108.149 E30.30028
G1 X25.203 Y107.796 E30.32137
G1 X24.845 Y107.524 E30.34268
G1 X24.44 Y107.356 E30.36346
G1 X23.993 Y107.299 E30.38482
G1 X23.554 Y107.358 E30.40582
G1 X23.145 Y107.53 E30.42685
G1 X22.793 Y107.801 E30.4479
G1 X22.526 Y108.149 E30.46869
G1 X22.446 Y108.342 E30.47859
G1 X22.356 Y108.56 E30.48848
G1 X22.298 Y109 E30.50308
G1 X22.356 Y109.441 E30.51772
G1 X22.446 Y109.655 E30.52745
G1 X22.53 Y109.855 E30.53773
G1 X22.801 Y110.207 E30.55879
G1 X23.15 Y110.474 E30.57961
G1 X23.344 Y110.554 E30.58956
G1 X23.566 Y110.645 E30.5996
G0 F3600 X23.764 Y110.671
G0 X23.75 Y110.77
G0 X22.981 Y110.693
G0 X22.315 Y110.013
G0 X22.283 Y109.44
G0 X24.528 Y12.942
G0 X24.566 Y12.645
G1 F1320 X25 Y12.702 E30.62035
G1 X25.446 Y12.642 E30.64168
G1 X25.855 Y12.471 E30.66269
G1 X26.204 Y12.204 E30.68352
G1 X26.474 Y11.851 E30.70458
G1 X26.644 Y11.44 E30.72566
G1 X26.702 Y11 E30.7467
G1 X26.644 Y10.56 E30.76773
G1 X26.474 Y10.149 E30.78881
G1 X26.199 Y9.793 E30.81013
G1 X25.85 Y9.526 E30.83096
G1 X25.656 Y9.446 E30.8409
G1 X25.434 Y9.355 E30.85095
G1 X25 Y9.298 E30.86533
G1 X24.56 Y9.356 E30.87993
G1 X24.342 Y9.446 E30.88982
G1 X24.149 Y9.526 E30.89972
G1 X23.793 Y9.801 E30.92104
G1 X23.526 Y10.15 E30.94186
G1 X23.355 Y10.566 E30.96318
G1 X23.298 Y11 E30.98393
G1 X23.356 Y11.44 E31.00496
G1 X23.526 Y11.851 E31.02604
G1 X23.801 Y12.207 E31.04736
G1 X24.15 Y12.474 E31.06819
G1 X24.566 Y12.645 E31.08951
G0 F3600 X24.764 Y12.671
G0 X24.361 Y13.415
;TYPE:SKIN
G1 F1320 X25.001 Y13.5 E31.12011
G1 X25.655 Y13.411 E31.15139
G1 X26.254 Y13.161 E31.18215
G1 X26.768 Y12.768 E31.21282
G1 X27.165 Y12.249 E31.24379
G1 X27.414 Y11.645 E31.27475
G1 X27.499 Y11 E31.30559
G1 X27.414 Y10.354 E31.33647
G1 X27.201 Y9.84 E31.36284
G1 X77.16 Y9.84 E33.73068
G1 X77.16 Y110.16 E38.48542
G1 X26.2 Y110.16 E40.9007
G1 X26.415 Y109.639 E40.92741
G1 X26.5 Y108.999 E40.95801
G1 X26.411 Y108.346 E40.98925
G1 X26.164 Y107.75 E41.01983
G1 X25.765 Y107.231 E41.05085
G1 X25.241 Y106.833 E41.08204
G1 X24.645 Y106.586 E41.11262
G1 X23.99 Y106.502 E41.14392
G1 X23.345 Y106.589 E41.17476
G1 X22.84 Y106.801 E41.20072
G1 X22.84 Y12.255 E45.6818
G1 X23.239 Y12.772 E45.71275
G1 X23.754 Y13.165 E45.74345
G1 X24.361 Y13.415 E45.77457
G0 F3600 X76.979 Y10.229
G1 F1320 X76.771 Y10.02 E45.78854
G0 F3600 X76.205 Y10.02
G1 F1320 X76.979 Y10.794 E45.84042
G0 F3600 X76.979 Y11.36
G1 F1320 X75.639 Y10.02 E45.93024
G0 F3600 X75.074 Y10.02
G1 F1320 X76.979 Y11.926 E46.05796
G0 F3600 X76.979 Y12.491
G1 F1320 X74.508 Y10.02 E46.22358
G0 F3600 X73.942 Y10.02
G1 F1320 X76.979 Y13.057 E46.42715
G0 F3600 X76.979 Y13.623
G1 F1320 X73.377 Y10.02 E46.66861
G0 F3600 X72.811 Y10.02
G1 F1320 X76.979 Y14.188 E46.94799
G0 F3600 X76.979 Y14.754
G1 F1320 X72.245 Y10.02 E47.26529
G0 F3600 X71.68 Y10.02
G1 F1320 X76.979 Y15.32 E47.62051
G0 F3600 X76.979 Y15.885
G1 F1320 X71.114 Y10.02 E48.01362
G0 F3600 X70.548 Y10.02
G1 F1320 X76.979 Y16.451 E48.44468
G0 F3600 X76.979 Y17.017
G1 F1320 X69.983 Y10.02 E48.91364
G0 F3600 X69.417 Y10.02
G1 F1320 X76.979 Y17.582 E49.4205
G0 F3600 X76.979 Y18.148
G1 F1320 X68.851 Y10.02 E49.9653
G0 F3600 X68.286 Y10.02
G1 F1320 X76.979 Y18.714 E50.54801
G0 F3600 X76.979 Y19.279
G1 F1320 X67.72 Y10.02 E51.16862
G0 F3600 X67.154 Y10.02
G1 F1320 X76.979 Y19.845 E51.82716
G0 F3600 X76.979 Y20.411
G1 F1320 X66.588 Y10.02 E52.52365
G0 F3600 X66.023 Y10.02
G1 F1320 X76.979 Y20.977 E53.25803
G0 F3600 X76.979 Y21.542
G1 F1320 X65.457 Y10.02 E54.03033
G0 F3600 X64.891 Y10.02
G1 F1320 X76.979 Y22.108 E54.84056
G0 F3600 X76.979 Y22.674
G1 F1320 X64.326 Y10.02 E55.68869
G0 F3600 X63.76 Y10.02
G1 F1320 X76.979 Y23.239 E56.57473
G0 F3600 X76.979 Y23.805
G1 F1320 X63.194 Y10.02 E57.4987
G0 F3600 X62.629 Y10.02
G1 F1320 X76.979 Y24.371 E58.46058
G0 F3600 X76.979 Y24.936
G1 F1320 X62.063 Y10.02 E59.46037
G0 F3600 X61.497 Y10.02
G1 F1320 X76.979 Y25.502 E60.49809
G0 F3600 X76.979 Y26.068
G1 F1320 X60.932 Y10.02 E61.57372
G0 F3600 X60.366 Y10.02
G1 F1320 X76.979 Y26.633 E62.68725
G0 F3600 X76.979 Y27.199
G1 F1320 X59.8 Y10.02 E63.83871
G0 F3600 X59.235 Y10.02
G1 F1320 X76.979 Y27.765 E65.02809
G0 F3600 X76.979 Y28.33
G1 F1320 X58.669 Y10.02 E66.25536
G0 F3600 X58.103 Y10.02
G1 F1320 X76.979 Y28.896 E67.52058
G0 F3600 X76.979 Y29.462
G1 F1320 X57.537 Y10.02 E68.82373
G0 F3600 X56.972 Y10.02
G1 F1320 X76.979 Y30.027 E70.16475
G0 F3600 X76.979 Y30.593
G1 F1320 X56.406 Y10.02 E71.54371
G0 F3600 X55.84 Y10.02
G1 F1320 X76.979 Y31.159 E72.9606
G0 F3600 X76.979 Y31.725
G1 F1320 X55.275 Y10.02 E74.41541
G0 F3600 X54.709 Y10.02
G1 F1320 X76.979 Y32.29 E75.90811
G0 F3600 X76.979 Y32.856
G1 F1320 X54.143 Y10.02 E77.43875
G0 F3600 X53.578 Y10.02
G1 F1320 X76.979 Y33.422 E79.0073
G0 F3600 X76.979 Y33.987
G1 F1320 X53.012 Y10.02 E80.61375
G0 F3600 X52.446 Y10.02
G1 F1320 X76.979 Y34.553 E82.25814
G0 F3600 X76.979 Y35.119
G1 F1320 X51.881 Y10.02 E83.94043
G0 F3600 X51.315 Y10.02
G1 F1320 X76.979 Y35.684 E85.66063
G0 F3600 X76.979 Y36.25
G1 F1320 X50.749 Y10.02 E87.41877
G0 F3600 X50.184 Y10.02
G1 F1320 X76.979 Y36.816 E89.21481
G0 F3600 X76.979 Y37.381
G1 F1320 X49.618 Y10.02 E91.04875
G0 F3600 X49.052 Y10.02
G1 F1320 X76.979 Y37.947 E92.92063
G0 F3600 X76.979 Y38.513
G1 F1320 X48.487 Y10.02 E94.83041
G0 F3600 X47.921 Y10.02
G1 F1320 X76.979 Y39.078 E96.7781
G0 F3600 X76.979 Y39.644
G1 F1320 X47.355 Y10.02 E98.76373
G0 F3600 X46.789 Y10.02
G1 F1320 X76.979 Y40.21 E100.78729
G0 F3600 X76.979 Y40.776
G1 F1320 X46.224 Y10.02 E102.84876
G0 F3600 X45.658 Y10.02
G1 F1320 X76.979 Y41.341 E104.94813
G0 F3600 X76.979 Y41.907
G1 F1320 X45.092 Y10.02 E107.08544
G0 F3600 X44.527 Y10.02
G1 F1320 X76.979 Y42.473 E109.26066
G0 F3600 X76.979 Y43.038
G1 F1320 X43.961 Y10.02 E111.47378
G0 F3600 X43.395 Y10.02
G1 F1320 X76.979 Y43.604 E113.72483
G0 F3600 X76.979 Y44.17
G1 F1320 X42.83 Y10.02 E116.01379
G0 F3600 X42.264 Y10.02
G1 F1320 X76.979 Y44.735 E118.34066
G0 F3600 X76.979 Y45.301
G1 F1320 X41.698 Y10.02 E120.70546
G0 F3600 X41.133 Y10.02
G1 F1320 X76.979 Y45.867 E123.10816
G0 F3600 X76.979 Y46.432
G1 F1320 X40.567 Y10.02 E125.54878
G0 F3600 X40.001 Y10.02
G1 F1320 X76.979 Y46.998 E128.02732
G0 F3600 X76.979 Y47.564
G1 F1320 X39.436 Y10.02 E130.54377
G0 F3600 X38.87 Y10.02
G1 F1320 X76.979 Y48.129 E133.09813
G0 F3600 X76.979 Y48.695
G1 F1320 X38.304 Y10.02 E135.69042
G0 F3600 X37.738 Y10.02
G1 F1320 X76.979 Y49.261 E138.32066
G0 F3600 X76.979 Y49.826
G1 F1320 X37.173 Y10.02 E140.98876
G0 F3600 X36.607 Y10.02
G1 F1320 X76.979 Y50.392 E143.6948
G0 F3600 X76.979 Y50.958
G1 F1320 X36.041 Y10.02 E146.43877
G0 F3600 X35.476 Y10.02
G1 F1320 X76.979 Y51.524 E149.22066
G0 F3600 X76.979 Y52.089
G1 F1320 X34.91 Y10.02 E152.04044
G0 F3600 X34.344 Y10.02
G1 F1320 X76.979 Y52.655 E154.89816
G0 F3600 X76.979 Y53.221
G1 F1320 X33.779 Y10.02 E157.79379
G0 F3600 X33.213 Y10.02
G1 F1320 X76.979 Y53.786 E160.72732
G0 F3600 X76.979 Y54.352
G1 F1320 X32.647 Y10.02 E163.69879
G0 F3600 X32.082 Y10.02
G1 F1320 X76.979 Y54.918 E166.70816
G0 F3600 X76.979 Y55.483
G1 F1320 X31.516 Y10.02 E169.75544
G0 F3600 X30.95 Y10.02
G1 F1320 X76.979 Y56.049 E172.84066
G0 F3600 X76.979 Y56.615
G1 F1320 X30.385 Y10.02 E175.96378
G0 F3600 X29.819 Y10.02
G1 F1320 X76.979 Y57.18 E179.1248
G0 F3600 X76.979 Y57.746
G1 F1320 X29.253 Y10.02 E182.32376
G0 F3600 X28.688 Y10.02
G1 F1320 X76.979 Y58.312 E185.56062
G0 F3600 X76.979 Y58.877
G1 F1320 X28.122 Y10.02 E188.83539
G0 F3600 X27.556 Y10.02
G1 F1320 X76.979 Y59.443 E192.1481
G0 F3600 X76.979 Y60.009
G1 F1320 X27.635 Y10.665 E195.45551
G0 F3600 X27.647 Y11.242
G1 F1320 X76.979 Y60.575 E198.76215
G0 F3600 X76.979 Y61.14
G1 F1320 X27.572 Y11.733 E202.07379
G0 F3600 X27.406 Y12.133
G1 F1320 X76.979 Y61.706 E205.39655
G0 F3600 X76.979 Y62.272
G1 F1320 X27.203 Y12.495 E208.73295
G0 F3600 X26.957 Y12.815
G1 F1320 X76.979 Y62.837 E212.0858
G0 F3600 X76.979 Y63.403
G1 F1320 X26.656 Y13.08 E215.45884
G0 F3600 X26.333 Y13.322
G1 F1320 X76.979 Y63.969 E218.85355
G0 F3600 X76.979 Y64.534
G1 F1320 X25.934 Y13.489 E222.27498
G0 F3600 X25.494 Y13.614
G1 F1320 X76.979 Y65.1 E225.72593
G0 F3600 X76.979 Y65.666
G1 F1320 X24.996 Y13.682 E229.21026
G0 F3600 X24.342 Y13.594
G1 F1320 X76.979 Y66.231 E232.73839
G0 F3600 X76.979 Y66.797
G1 F1320 X23.019 Y12.836 E236.35524
G0 F3600 X23.019 Y13.402
G1 F1320 X76.979 Y67.363 E239.97208
G0 F3600 X76.979 Y67.928
G1 F1320 X23.019 Y13.968 E243.58889
G0 F3600 X23.019 Y14.533
G1 F1320 X76.979 Y68.494 E247.20574
G0 F3600 X76.979 Y69.06
G1 F1320 X23.019 Y15.099 E250.82258
G0 F3600 X23.019 Y15.665
G1 F1320 X76.979 Y69.625 E254.43939
G0 F3600 X76.979 Y70.191
G1 F1320 X23.019 Y16.23 E258.05624
G0 F3600 X23.019 Y16.796
G1 F1320 X76.979 Y70.757 E261.67308
G0 F3600 X76.979 Y71.323
G1 F1320 X23.019 Y17.362 E265.28992
G0 F3600 X23.019 Y17.927
G1 F1320 X76.979 Y71.888 E268.90677
G0 F3600 X76.979 Y72.454
G1 F1320 X23.019 Y18.493 E272.52361
G0 F3600 X23.019 Y19.059
G1 F1320 X76.979 Y73.02 E276.14046
G0 F3600 X76.979 Y73.585
G1 F1320 X23.019 Y19.625 E279.75727
G0 F3600 X23.019 Y20.19
G1 F1320 X76.979 Y74.151 E283.37411
G0 F3600 X76.979 Y74.717
G1 F1320 X23.019 Y20.756 E286.99096
G0 F3600 X23.019 Y21.322
G1 F1320 X76.979 Y75.282 E290.60777
G0 F3600 X76.979 Y75.848
G1 F1320 X23.019 Y21.887 E294.22461
G0 F3600 X23.019 Y22.453
G1 F1320 X76.979 Y76.414 E297.84146
G0 F3600 X76.979 Y76.979
G1 F1320 X23.019 Y23.019 E301.45827
G0 F3600 X23.019 Y23.584
G1 F1320 X76.979 Y77.545 E305.07511
G0 F3600 X76.979 Y78.111
G1 F1320 X23.019 Y24.15 E308.69196
G0 F3600 X23.019 Y24.716
G1 F1320 X76.979 Y78.676 E312.30877
G0 F3600 X76.979 Y79.242
G1 F1320 X23.019 Y25.281 E315.92561
G0 F3600 X23.019 Y25.847
G1 F1320 X76.979 Y79.808 E319.54246
G0 F3600 X76.979 Y80.373
G1 F1320 X23.019 Y26.413 E323.15927
G0 F3600 X23.019 Y26.978
G1 F1320 X76.979 Y80.939 E326.77611
G0 F3600 X76.979 Y81.505
G1 F1320 X23.019 Y27.544 E330.39296
G0 F3600 X23.019 Y28.11
G1 F1320 X76.979 Y82.071 E334.0098
G0 F3600 X76.979 Y82.636
G1 F1320 X23.019 Y28.676 E337.62661
G0 F3600 X23.019 Y29.241
G1 F1320 X76.979 Y83.202 E341.24346
G0 F3600 X76.979 Y83.768
G1 F1320 X23.019 Y29.807 E344.8603
G0 F3600 X23.019 Y30.373
G1 F1320 X76.979 Y84.333 E348.47711
G0 F3600 X76.979 Y84.899
G1 F1320 X23.019 Y30.938 E352.09396
G0 F3600 X23.019 Y31.504
G1 F1320 X76.979 Y85.465 E355.7108
G0 F3600 X76.979 Y86.03
G1 F1320 X23.019 Y32.07 E359.32761
G0 F3600 X23.019 Y32.635
G1 F1320 X76.979 Y86.596 E362.94446
G0 F3600 X76.979 Y87.162
G1 F1320 X23.019 Y33.201 E366.5613
G0 F3600 X23.019 Y33.767
G1 F1320 X76.979 Y87.727 E370.17811
G0 F3600 X76.979 Y88.293
G1 F1320 X23.019 Y34.332 E373.79496
G0 F3600 X23.019 Y34.898
G1 F1320 X76.979 Y88.859 E377.4118
G0 F3600 X76.979 Y89.424
G1 F1320 X23.019 Y35.464 E381.02861
G0 F3600 X23.019 Y36.029
G1 F1320 X76.979 Y89.99 E384.64546
G0 F3600 X76.979 Y90.556
G1 F1320 X23.019 Y36.595 E388.2623
G0 F3600 X23.019 Y37.161
G1 F1320 X76.979 Y91.122 E391.87915
G0 F3600 X76.979 Y91.687
G1 F1320 X23.019 Y37.726 E395.49599
G0 F3600 X23.019 Y38.292
G1 F1320 X76.979 Y92.253 E399.11283
G0 F3600 X76.979 Y92.819
G1 F1320 X23.019 Y38.858 E402.72968
G0 F3600 X23.019 Y39.424
G1 F1320 X76.979 Y93.384 E406.34649
G0 F3600 X76.979 Y93.95
G1 F1320 X23.019 Y39.989 E409.96333
G0 F3600 X23.019 Y40.555
G1 F1320 X76.979 Y94.516 E413.58018
G0 F3600 X76.979 Y95.081
G1 F1320 X23.019 Y41.121 E417.19699
G0 F3600 X23.019 Y41.686
G1 F1320 X76.979 Y95.647 E420.81383
G0 F3600 X76.979 Y96.213
G1 F1320 X23.019 Y42.252 E424.43068
G0 F3600 X23.019 Y42.818
G1 F1320 X76.979 Y96.778 E428.04749
G0 F3600 X76.979 Y97.344
G1 F1320 X23.019 Y43.383 E431.66433
G0 F3600 X23.019 Y43.949
G1 F1320 X76.979 Y97.91 E435.28118
G0 F3600 X76.979 Y98.475
G1 F1320 X23.019 Y44.515 E438.89799
G0 F3600 X23.019 Y45.08
G1 F1320 X76.979 Y99.041 E442.51483
G0 F3600 X76.979 Y99.607
G1 F1320 X23.019 Y45.646 E446.13168
G0 F3600 X23.019 Y46.212
G1 F1320 X76.979 Y100.172 E449.74849
G0 F3600 X76.979 Y100.738
G1 F1320 X23.019 Y46.777 E453.36533
G0 F3600 X23.019 Y47.343
G1 F1320 X76.979 Y101.304 E456.98218
G0 F3600 X76.979 Y101.87
G1 F1320 X23.019 Y47.909 E460.59902
G0 F3600 X23.019 Y48.474
G1 F1320 X76.979 Y102.435 E464.21587
G0 F3600 X76.979 Y103.001
G1 F1320 X23.019 Y49.04 E467.83271
G0 F3600 X23.019 Y49.606
