;FilamentType:PLA
;MachineType:ENTINA TINA2
;Extruder0Temperature:200
;BedTemperature:40
;InfillDensity:10
;FLAVOR:Marlin
;TIME:8713
;FilamentUsed: 6135.31
;Layer height: 0.15
;MINX:21.2
;MINY:8.2
;MINZ:0.3
;MAXX:78.8
;MAXY:111.8
;MAXZ:18
;Generated with Cura_SteamEngine 4.10.0
M82 ;absolute extrusion mode
;(**** start.gcode for TINA2****)
M104 S150
G28 Z
G28 X Y; Home extruder
G1 X55 Y55 F1000
G1 Z10 F200
G29
G1 Z15 F100
M107 ; Turn off fan
G90 ; Absolute positioning
M82 ; Extruder in absolute mode
M109 S215
G92 E0 ; Reset extruder position
G1 X90 Y6 Z0.27 F2000
G1 X20 Y6 Z0.27 E15 F1000 
G92 E0 ; Reset extruder position

M203 Z5
G92 E0
G92 E0
G1 F2100 E-3
;LAYER_COUNT:119
;LAYER:0
M107
;MESH:X68KFDuino-Top_Print.stl
G0 F3600 X30.259 Y64.256 Z0.3
;TYPE:WALL-INNER
G1 F2100 E0
G1 F1320 X30.074 Y64.282 E0.00885
G1 X29.805 Y64.257 E0.02166
G1 X29.655 Y64.243 E0.0288
G1 X29.633 Y64.24 E0.02985
G1 X29.551 Y64.206 E0.03406
G1 X29.486 Y64.178 E0.03741
G1 X29.482 Y64.014 E0.04519
G1 X29.532 Y63.947 E0.04915
G1 X29.69 Y63.874 E0.05601
G1 X29.84 Y63.859 E0.06289
G1 X30.033 Y63.838 E0.07209
G1 X30.212 Y63.861 E0.08065
G1 X30.423 Y63.887 E0.09072
G1 X30.58 Y64.001 E0.09992
G1 X30.577 Y64.214 E0.11001
G1 X30.47 Y64.228 E0.11308
G1 X30.259 Y64.256 E0.12247
G0 F3600 X30.578 Y64.636
;TYPE:WALL-OUTER
G1 F1320 X30.074 Y64.684 E0.14646
G1 X29.533 Y64.632 E0.17222
G1 X29.236 Y64.507 E0.18749
G1 X29.107 Y64.343 E0.19738
G1 X29.066 Y64.088 E0.20962
G1 X29.101 Y63.855 E0.22079
G1 X29.273 Y63.626 E0.23437
G1 X29.583 Y63.483 E0.25055
G1 X30.037 Y63.435 E0.27218
G1 X30.546 Y63.499 E0.2965
G1 X30.826 Y63.647 E0.31151
G1 X30.961 Y63.853 E0.32318
G1 X31.005 Y64.136 E0.33676
G1 X30.937 Y64.435 E0.35129
G1 X30.782 Y64.566 E0.36091
G1 X30.578 Y64.636 E0.37113
G0 F3600 X30.379 Y64.654
G1 F2100 E-2.62887
G0 F3600 X30.312 Y64.149
G0 X29.843 Y67.44
G0 X29.765 Y68.058
G0 X29.838 Y68.125
;TYPE:WALL-INNER
G1 F2100 E0.37113
G1 F1320 X29.658 Y68.245 E0.38138
G1 X29.559 Y68.195 E0.38664
G1 X29.497 Y68.069 E0.3933
G1 X29.486 Y67.988 E0.39717
G1 X29.469 Y67.873 E0.40268
G1 X29.505 Y67.648 E0.41348
G1 X29.579 Y67.52 E0.42049
G1 X29.674 Y67.451 E0.42605
G1 X29.773 Y67.432 E0.43083
G1 X29.843 Y67.42 E0.4342
G1 X29.994 Y67.45 E0.44149
G1 X30.145 Y67.56 E0.45035
G1 X30.135 Y67.578
G1 X30.102 Y67.64 E0.45342
G1 X29.877 Y68.053 E0.47571
G1 X29.838 Y68.125 E0.47959
G0 F3600 X29.929 Y68.59
;TYPE:WALL-OUTER
G1 F1320 X29.657 Y68.657 E0.49287
G1 X29.412 Y68.596 E0.50484
G1 X29.236 Y68.445 E0.51583
G1 X29.11 Y68.188 E0.52939
G1 X29.065 Y67.869 E0.54466
G1 X29.122 Y67.512 E0.5618
G1 X29.275 Y67.246 E0.57634
G1 X29.511 Y67.075 E0.59015
G1 X29.846 Y67.013 E0.6063
G1 X30.157 Y67.075 E0.62133
G1 X30.434 Y67.275 E0.63752
G1 X30.614 Y67.535 E0.65251
G1 X30.16 Y68.372 E0.69764
G1 X29.929 Y68.59 E0.7127
G0 F3600 X29.735 Y68.637
G0 X29.873 Y67.884
G1 F2100 E-2.2873
G0 F3600 X29.861 Y67.877
G0 X31.95 Y68.091
G0 X32.279 Y68.219
;TYPE:WALL-INNER
G1 F2100 E0.7127
G1 F1320 X32.133 Y68.241 E0.71969
G1 X31.931 Y68.095 E0.73151
G1 X31.96 Y68.042 E0.73331
G1 X32.074 Y67.838 E0.74439
G1 X32.196 Y67.617 E0.75635
G1 X32.282 Y67.562 E0.76119
G1 X32.36 Y67.678 E0.76407
G1 X32.377 Y68.005 E0.77494
G1 X32.279 Y68.219 E0.78484
G0 F3600 X32.499 Y68.564
;TYPE:WALL-OUTER
G1 F1320 X32.274 Y68.648 E0.79622
G1 X32.032 Y68.637 E0.8077
G1 X31.761 Y68.505 E0.82199
G1 X31.507 Y68.222 E0.84001
G1 X31.454 Y68.13 E0.84504
G1 X31.879 Y67.363 E0.8866
G1 X32.069 Y67.197 E0.89856
G1 X32.289 Y67.152 E0.9092
G1 X32.497 Y67.203 E0.91935
G1 X32.655 Y67.354 E0.92971
G1 X32.755 Y67.584 E0.9416
G1 X32.781 Y68.068 E0.96457
G1 X32.656 Y68.409 E0.98179
G1 X32.499 Y68.564 E0.99224
G0 F3600 X32.312 Y68.634
G1 F2100 E-2.00776
G0 F3600 X32.237 Y68.124
G0 X32.137 Y80.857
G0 X31.533 Y81.788
G0 X31.543 Y81.887
;TYPE:WALL-INNER
G1 F2100 E0.99224
G1 F1320 X30.984 Y81.907 E1.01875
G1 X30.061 Y81.839 E1.06262
G1 X29.742 Y81.731 E1.07858
G1 X29.626 Y81.636 E1.08569
G1 X29.536 Y81.461 E1.09501
G1 X29.497 Y81.056 E1.1143
G1 X29.476 Y80.837 E1.12473
G1 X29.696 Y80.837 E1.1313
G1 X32.177 Y80.837 E1.24889
G1 X32.178 Y80.837 E1.24894
G1 X32.394 Y80.837 E1.25918
G1 X32.377 Y81.053 E1.26568
G1 X32.351 Y81.361 E1.28033
G1 X32.26 Y81.601 E1.29249
G1 X32.149 Y81.72 E1.3002
G1 X31.94 Y81.817 E1.31112
G1 X31.543 Y81.887 E1.33023
G0 F3600 X31.533 Y81.788
G0 X29.55 Y80.904
G0 X29.07 Y80.642
;TYPE:WALL-OUTER
G1 F1320 X29.069 Y80.641 E1.3303
G1 X29.065 Y80.437 E1.33997
G1 X29.269 Y80.437 E1.34619
G1 X29.27 Y80.437 E1.34624
G1 X32.794 Y80.437 E1.51326
G1 X32.794 Y80.882 E1.53435
G1 X32.744 Y81.453 E1.56152
G1 X32.606 Y81.817 E1.57997
G1 X32.39 Y82.049 E1.59499
G1 X32.06 Y82.202 E1.61223
G1 X31.584 Y82.286 E1.63514
G1 X30.978 Y82.308 E1.66388
G1 X29.982 Y82.234 E1.71122
G1 X29.545 Y82.087 E1.73307
G1 X29.308 Y81.893 E1.74759
G1 X29.154 Y81.593 E1.76357
G1 X29.086 Y81.235 E1.78084
G1 X29.07 Y80.642 E1.80895
G0 F3600 X29.069 Y80.641
G0 X29.066 Y80.442
G0 X29.55 Y80.904
G0 X29.905 Y81.227
;TYPE:SKIN
G1 F1320 X31.971 Y81.227 E1.90687
G1 X31.915 Y81.399 E1.91545
G1 X31.504 Y81.497 E1.93547
G1 X30.981 Y81.517 E1.96028
G1 X30.141 Y81.455 E2.0002
G1 X29.916 Y81.349 E2.01199
G1 X29.905 Y81.227 E2.01779
G0 F3600 X29.916 Y81.237
G1 F2100 E-0.98221
G0 F3600 X30.937 Y81.885
G0 X29.947 Y94.266
G0 X29.987 Y94.767
;TYPE:WALL-INNER
G1 F2100 E2.01779
G1 F1320 X29.969 Y94.77 E2.01866
G1 X29.894 Y94.758 E2.02226
G1 X29.484 Y94.692 E2.04194
G1 X29.495 Y94.502 E2.05096
G1 X29.929 Y94.449 E2.06418
G1 X29.943 Y94.447 E2.06477
G1 X30.013 Y94.456 E2.06738
G1 X30.444 Y94.518 E2.08802
G1 X30.444 Y94.705 E2.09688
G1 X29.987 Y94.767 E2.11082
G0 F3600 X30.571 Y95.096
;TYPE:WALL-OUTER
G1 F1320 X29.977 Y95.172 E2.1392
G1 X29.479 Y95.124 E2.16291
G1 X29.219 Y95.015 E2.17628
G1 X29.106 Y94.864 E2.18521
G1 X29.066 Y94.607 E2.19754
G1 X29.132 Y94.28 E2.21335
G1 X29.281 Y94.153 E2.22263
G1 X29.463 Y94.088 E2.23179
G1 X29.956 Y94.045 E2.25525
G1 X30.6 Y94.136 E2.28607
G1 X30.762 Y94.245 E2.29533
G1 X30.854 Y94.457 E2.30628
G1 X30.856 Y94.758 E2.32055
G1 X30.764 Y94.98 E2.33194
G1 X30.571 Y95.096 E2.34261
G0 F3600 X30.373 Y95.121
G0 X30.267 Y94.695
G1 F2100 E-0.65739
G0 F3600 X29.319 Y94.338
G0 X28.866 Y93.398
G0 X27.99 Y93.34
;TYPE:WALL-INNER
G1 F2100 E2.34261
G1 F1320 X28.247 Y93.34 E2.35479
G1 X28.399 Y93.34 E2.36199
G1 X28.247 Y93.537 E2.3673
G1 X28.051 Y94.024 E2.39218
G1 X27.987 Y94.586 E2.41899
G1 X28.064 Y95.194 E2.44803
G1 X28.307 Y95.735 E2.47614
G1 X28.592 Y96.079 E2.49732
G1 X29.049 Y96.398 E2.52373
G1 X29.556 Y96.572 E2.54914
G1 X29.999 Y96.613 E2.57022
G1 X30.533 Y96.545 E2.59574
G1 X31.013 Y96.353 E2.62024
G1 X31.364 Y96.093 E2.64094
G1 X31.686 Y95.677 E2.66587
G1 X31.882 Y95.19 E2.69076
G1 X31.946 Y94.628 E2.71756
G1 X31.867 Y94.021 E2.74658
G1 X31.625 Y93.482 E2.77458
G1 X31.341 Y93.133 E2.7959
G1 X31.2 Y93.036 E2.80402
G1 X30.902 Y92.83 E2.82119
G1 X31.236 Y92.689 E2.83083
G1 X31.39 Y92.623 E2.83877
G1 X31.734 Y92.256 E2.86262
G1 X31.897 Y91.842 E2.8837
G1 X31.945 Y91.368 E2.90628
G1 X31.897 Y91.057 E2.9212
G1 X31.943 Y91.057
G1 X31.943 Y89.241 E3.00727
G1 X31.943 Y88.974 E3.01992
G1 X31.943 Y88.865 E3.02509
G1 X32.023 Y88.974 E3.02654
G1 X32.258 Y89.1 E3.03484
G1 X32.45 Y89.203 E3.04516
G1 X32.905 Y89.221 E3.06675
G1 X33.354 Y89.03 E3.08987
G1 X33.629 Y88.705 E3.11005
G1 X33.743 Y88.231 E3.13316
G1 X33.652 Y87.828 E3.15274
G1 X33.416 Y87.508 E3.17158
G1 X33.085 Y87.31 E3.18986
G1 X32.706 Y87.246 E3.20808
G1 X32.33 Y87.317 E3.22622
G1 X32.315 Y87.319 E3.22693
G1 X31.987 Y87.535 E3.24555
G1 X31.943 Y87.601 E3.24931
G1 X31.943 Y87.535 E3.24932
G1 X31.943 Y87.319 E3.25339
G1 X31.943 Y87.303 E3.25413
G1 X31.943 Y83.702 E3.42481
G1 X32.101 Y83.671 E3.43244
G1 X32.744 Y83.392 E3.46566
G1 X33.056 Y83.152 E3.48431
G1 X33.322 Y82.867 E3.50279
G1 X33.67 Y82.221 E3.53757
G1 X33.793 Y81.779 E3.55931
G1 X33.87 Y80.934 E3.59953
G1 X33.87 Y69.418 E4.14534
G1 X33.656 Y69.418 E4.15548
G1 X33.433 Y69.418 E4.16605
G1 X33.278 Y69.418 E4.1734
G1 X33.433 Y69.274 E4.17678
G1 X33.546 Y69.082 E4.1844
G1 X33.695 Y68.829 E4.19832
G1 X33.847 Y68.284 E4.22513
G1 X33.849 Y67.526 E4.26106
G1 X33.659 Y66.865 E4.29366
G1 X33.435 Y66.488 E4.31444
G1 X33.077 Y66.138 E4.33817
G1 X33.058 Y66.12 E4.33941
G1 X32.846 Y66.005 E4.35084
G1 X32.976 Y65.945 E4.3514
G1 X33.237 Y65.823 E4.36283
G1 X33.256 Y65.805 E4.36407
G1 X33.508 Y65.558 E4.38079
G1 X33.72 Y65.179 E4.40137
G1 X33.81 Y64.895 E4.41549
G1 X33.874 Y64.377 E4.44023
G1 X33.797 Y63.794 E4.4681
G1 X33.565 Y63.281 E4.49479
G1 X33.361 Y63.012 E4.51079
G1 X33.307 Y62.941 E4.51502
G1 X32.921 Y62.631 E4.53848
G1 X33.307 Y62.631 E4.54471
G1 X33.397 Y62.631 E4.54855
G1 X33.87 Y62.631 E4.57097
G1 X33.87 Y56.831 E4.84587
G1 X32.394 Y56.831 E4.91582
G1 X32.394 Y57.678 E4.95597
G1 X30.869 Y58.684 E5.04255
G1 X29.465 Y57.611 E5.12631
G1 X29.465 Y56.723 E5.16839
G1 X27.99 Y56.723 E5.2383
G1 X27.99 Y59.45 E5.36755
G1 X29.414 Y59.45 E5.43504
G1 X29.489 Y59.507 E5.43951
G1 X29.526 Y59.535 E5.4417
G1 X29.555 Y59.557 E5.44343
G1 X29.507 Y59.589 E5.4441
G1 X29.465 Y59.617 E5.44454
G1 X29.465 Y59.557 E5.44524
G1 X29.465 Y59.54
G1 X29.414 Y59.54
G1 X27.99 Y59.54 E5.46042
G1 X27.99 Y62.663 E5.60844
G1 X28.155 Y62.663 E5.61626
G1 X28.41 Y62.663 E5.62835
G1 X28.524 Y62.663 E5.63375
G1 X28.41 Y62.767 E5.6359
G1 X28.284 Y62.988 E5.64409
G1 X28.123 Y63.269 E5.65944
G1 X27.998 Y63.857 E5.68793
G1 X28.018 Y64.464 E5.71672
G1 X28.168 Y64.963 E5.74141
G1 X28.499 Y65.472 E5.77019
G1 X28.908 Y65.814 E5.79546
G1 X28.929 Y65.832 E5.79677
G1 X29.051 Y65.89 E5.80317
G1 X28.986 Y65.928
G1 X28.704 Y66.094 E5.81535
G1 X28.686 Y66.114 E5.81656
G1 X28.406 Y66.422 E5.83628
G1 X28.153 Y66.904 E5.86209
G1 X28.011 Y67.46 E5.88928
G1 X28.016 Y68.242 E5.92635
G1 X28.242 Y68.95 E5.96157
G1 X28.351 Y69.101 E5.9704
G1 X28.58 Y69.418 E5.98893
G1 X28.189 Y69.418 E5.99922
G1 X27.99 Y69.418 E6.00865
G1 X27.99 Y77.386 E6.3863
G1 X29.366 Y77.386 E6.45151
G1 X29.366 Y78.153 E6.48787
G1 X29.465 Y78.153 E6.49256
G1 X31.293 Y78.153 E6.5792
G1 X31.293 Y79.009 E6.61977
G1 X29.465 Y79.009 E6.70641
G1 X29.465 Y78.364 E6.73698
G1 X29.366 Y78.364 E6.73945
G1 X27.99 Y78.364 E6.80467
G1 X27.99 Y80.896 E6.92468
G1 X28.093 Y81.835 E6.96945
G1 X28.238 Y82.271 E6.99123
G1 X28.438 Y82.656 E7.01179
G1 X28.811 Y83.106 E7.03949
G1 X29.252 Y83.418 E7.06509
G1 X29.265 Y83.427 E7.06584
G1 X29.275 Y83.434 E7.06642
G1 X29.469 Y83.522 E7.07652
G1 X29.628 Y83.595 E7.08481
G1 X30.07 Y83.707 E7.10642
G1 X29.628 Y83.707 E7.10921
G1 X29.386 Y83.707 E7.11482
G1 X29.303 Y83.715 E7.11607
G1 X29.045 Y83.74 E7.12727
G1 X29.031 Y83.746 E7.12798
G1 X28.536 Y83.958 E7.1535
G1 X28.181 Y84.36 E7.17892
G1 X28.021 Y84.822 E7.20209
G1 X27.987 Y85.234 E7.22168
G1 X28.032 Y85.521 E7.23545
G1 X27.99 Y85.521
G1 X27.99 Y93.34 E7.60604
G0 F3600 X28.162 Y89.364
G0 X30.467 Y89.276
G1 F1320 X29.465 Y89.276 E7.65353
G1 X29.465 Y89.13 E7.66045
G1 X30.467 Y89.13 E7.67778
G1 X30.467 Y89.276 E7.6847
G0 F3600 X31.571 Y88.758
G0 X31.766 Y87.981
G0 X31.771 Y87.237
G0 X30.639 Y87.237
G0 X30.467 Y87.349
G1 F1320 X29.465 Y87.349 E7.7322
G1 X29.465 Y87.302 E7.73442
G1 X30.467 Y87.302 E7.74
G1 X30.467 Y87.349 E7.74223
G0 F3600 X31.771 Y86.93
G0 X31.771 Y83.609
G0 X30.325 Y83.603
G0 X29.681 Y83.442
G0 X28.92 Y82.986
G0 X28.572 Y82.567
G0 X28.251 Y81.8
G0 X28.151 Y80.883
G0 X28.162 Y78.536
G0 X29.537 Y76.945
G0 X30.067 Y76.708
G1 F1320 X29.465 Y76.782 E7.77098
G1 X29.465 Y76.708 E7.77448
G1 X30.067 Y76.708 E7.77708
G0 F3600 X29.537 Y76.945
G0 X29.538 Y77.981
G0 X31.726 Y77.981
G0 X32.394 Y76.708
G1 F1320 X32.394 Y76.789 E7.78092
G1 X32.383 Y76.788
G1 X31.809 Y76.708 E7.80839
G1 X32.394 Y76.708 E7.81135
G0 F3600 X32.388 Y77.93
G0 X31.463 Y78.125
G0 X31.466 Y78.751
G0 X33.698 Y78.635
G0 X33.698 Y74.807
G0 X32.68 Y74.807
G0 X32.394 Y74.88
G1 F1320 X29.465 Y74.88 E7.95017
G1 X29.465 Y74.364 E7.97463
G1 X31.198 Y72.818 E8.0847
G1 X32.394 Y74.021 E8.1651
G1 X32.394 Y74.88 E8.20581
G0 F3600 X33.698 Y74.454
G0 X33.698 Y72.68
G0 X32.643 Y72.289
G0 X32.394 Y71.891
G1 F1320 X32.394 Y71.953 E8.20875
G1 X32.363 Y71.922
G1 X32.332 Y71.891 E8.20877
G1 X32.394 Y71.891 E8.20951
G0 F3600 X33.698 Y72.132
G0 X33.698 Y69.59
G0 X32.98 Y69.595
G0 X32.217 Y69.867
G1 F1320 X32.36 Y69.846 E8.21636
G1 X32.394 Y69.84 E8.218
G1 X32.394 Y69.867
G1 X32.394 Y70.063 E8.22348
G1 X32.217 Y70.063 E8.22822
G1 X31.742 Y70.063 E8.25073
G1 X30.806 Y70.063 E8.29509
G1 X30.393 Y70.063 E8.31467
G1 X29.878 Y70.063 E8.33908
G1 X29.465 Y70.063 E8.35865
G1 X29.465 Y69.948 E8.3641
G1 X29.482 Y69.95
G1 X29.878 Y70.011 E8.36783
G1 X30.393 Y69.932 E8.37365
G1 X30.806 Y69.722 E8.38732
G1 X31.137 Y69.416 E8.40869
G1 X31.234 Y69.522 E8.4155
G1 X31.742 Y69.793 E8.44279
G1 X32.217 Y69.867 E8.45614
G0 F3600 X29.293 Y70.235
G0 X28.96 Y69.596
G0 X28.162 Y69.59
G0 X28.162 Y72.132
G0 X29.293 Y72.132
G0 X29.508 Y71.938
G1 F1320 X29.465 Y71.976 E8.45886
G1 X29.465 Y71.891 E8.46005
G1 X29.561 Y71.891 E8.46185
G1 X29.508 Y71.938
G0 F3600 X28.162 Y72.132
G0 X28.162 Y69.59
G0 X28.96 Y69.596
G0 X30.187 Y70.225
G0 X32.664 Y69.622
G0 X33.305 Y69.174
G0 X33.686 Y68.263
G0 X33.688 Y67.548
G0 X33.51 Y66.931
G0 X32.999 Y66.287
G0 X31.953 Y65.777
G1 F1320 X32.045 Y65.829 E8.46686
G1 X31.962 Y65.84 E8.46688
G1 X31.657 Y65.881 E8.481
G1 X31.481 Y65.961 E8.49016
G1 X31.265 Y66.059 E8.5014
G1 X31.057 Y66.218 E8.51381
G1 X30.985 Y66.274 E8.51814
G1 X30.799 Y66.086 E8.53067
G1 X30.75 Y66.037 E8.53396
G1 X30.887 Y65.998 E8.53608
G1 X31.14 Y65.849 E8.54542
G1 X31.368 Y65.714 E8.55373
G1 X31.417 Y65.661 E8.55557
G1 X31.697 Y65.358 E8.57513
G1 X31.918 Y65.721 E8.59191
G1 X31.953 Y65.777
G0 F3600 X32.147 Y64.199
G1 F1320 X32.069 Y64.263 E8.5967
G1 X32.068 Y64.201
G1 X32.067 Y64.16
G1 X32.063 Y64.004 E8.60076
G1 X32.18 Y64.073 E8.6022
G1 X32.21 Y64.091
G1 X32.316 Y64.154 E8.60527
G1 X32.147 Y64.199 E8.60803
G0 F3600 X31.622 Y65.182
G0 X30.826 Y65.847
G0 X29.469 Y65.893
G0 X28.62 Y65.362
G0 X28.316 Y64.895
G0 X28.16 Y63.869
G0 X28.275 Y63.328
G0 X28.85 Y62.602
G0 X29.985 Y61.982
G1 F1320 X29.85 Y62.011 E8.61457
G1 X29.522 Y62.08 E8.63046
G1 X29.465 Y62.093 E8.63323
G1 X29.465 Y61.814 E8.64181
G1 X29.745 Y61.629 E8.65522
G1 X31.063 Y60.756 E8.73014
G1 X32.394 Y61.773 E8.80954
G1 X32.394 Y62.136 E8.82674
G1 X32.394 Y62.183 E8.82897
G1 X32.394 Y62.33 E8.83593
G1 X32.069 Y62.183 E8.84667
G1 X32.024 Y62.173 E8.84869
G1 X31.329 Y62.006 E8.88257
G1 X30.561 Y61.95 E8.91906
G1 X29.985 Y61.982 E8.94641
G0 F3600 X32.559 Y61.691
G0 X32.566 Y62.459
G0 X33.698 Y62.459
G0 X33.698 Y60.325
G0 X32.394 Y59.876
G1 F1320 X32.394 Y59.895 E8.94731
G1 X32.381 Y59.885 E8.94734
G1 X32.394 Y59.876 E8.94736
G0 F3600 X33.698 Y59.581
G0 X33.698 Y57.493
G0 X32.4 Y23.4
G1 F1320 X32.4 Y28.6 E9.19382
G1 X53.6 Y28.6 E10.1986
G1 X53.6 Y23.4 E10.44506
G1 X32.4 Y23.4 E11.44985
G0 F3600 X32.572 Y28.428
G0 X77.901 Y110.922
G1 F1320 X77.723 Y110.922 E11.45829
G1 X22.105 Y110.921 E14.09434
G1 X22.079 Y110.899 E14.09595
G1 X22.079 Y9.296 E18.9115
G1 X22.079 Y9.119 E18.91989
G1 X22.099 Y9.078 E18.92205
G1 X22.276 Y9.078 E18.93044
G1 X77.895 Y9.079 E21.56654
G1 X77.921 Y9.101 E21.56815
G1 X77.921 Y110.704 E26.3837
G1 X77.921 Y110.882 E26.39214
G1 X77.901 Y110.922 E26.39426
G0 F3600 X78.195 Y111.231
;TYPE:WALL-OUTER
G1 F1320 X77.993 Y111.322 E26.40476
G1 X22.005 Y111.321 E29.05835
G1 X21.767 Y111.193 E29.07115
G1 X21.679 Y110.978 E29.08216
G1 X21.679 Y9.025 E33.9143
G1 X21.806 Y8.768 E33.92788
G1 X22.007 Y8.678 E33.93832
G1 X77.995 Y8.679 E36.59191
G1 X78.233 Y8.807 E36.60472
